/* XPM */
static const char *ai_mossy_bricks[] = {
/* columns rows colors chars-per-pixel */
"64 64 204 2 ",
"   c #060C0F",
".  c #080A0E",
"X  c #03060C",
"o  c #06160F",
"O  c #09140F",
"+  c #0B190F",
"@  c #060C12",
"#  c #0A0E13",
"$  c #0B0E1A",
"%  c #061711",
"&  c #0C1315",
"*  c #0C1B12",
"=  c #0D1419",
"-  c #0F191A",
";  c #111516",
":  c #131C15",
">  c #191A15",
",  c #121619",
"<  c #141B1B",
"1  c #1A1D1C",
"2  c #0E280F",
"3  c #0B230F",
"4  c #15240F",
"5  c #152C0E",
"6  c #15330E",
"7  c #1F360F",
"8  c #16390E",
"9  c #1C3B0E",
"0  c #0E2315",
"q  c #0F2914",
"w  c #132314",
"e  c #192516",
"r  c #152B14",
"t  c #1B2C15",
"y  c #16231C",
"u  c #1B231C",
"i  c #162B1B",
"p  c #1B2B1C",
"a  c #163214",
"s  c #1C3314",
"d  c #163914",
"f  c #1B3B13",
"g  c #1D331C",
"h  c #1F3D18",
"j  c #20380F",
"k  c #21251D",
"l  c #222C1C",
"z  c #292E1D",
"x  c #213515",
"c  c #233B15",
"v  c #2A3E16",
"b  c #22341C",
"n  c #2A321E",
"m  c #243C1B",
"M  c #2B3B1D",
"N  c #313D1F",
"B  c #151D21",
"V  c #191F21",
"C  c #1C1F28",
"Z  c #162223",
"A  c #1B2423",
"S  c #1D2A24",
"D  c #1D252A",
"F  c #1F292A",
"G  c #1E3421",
"H  c #1F3129",
"J  c #222623",
"K  c #222B23",
"L  c #292E22",
"P  c #212629",
"I  c #222C2C",
"U  c #292F2C",
"Y  c #233423",
"T  c #2B3223",
"R  c #253B23",
"E  c #2B3D23",
"W  c #25322C",
"Q  c #2A342C",
"!  c #27392A",
"~  c #2A3B2C",
"^  c #313421",
"/  c #323C23",
"(  c #323D2D",
")  c #383D2A",
"_  c #33362D",
"`  c #252D32",
"'  c #282E30",
"]  c #272E39",
"[  c #282F3A",
"{  c #263131",
"}  c #2A3434",
"|  c #2D3A33",
" . c #2D3639",
".. c #2E3939",
"X. c #313733",
"o. c #313C35",
"O. c #383F33",
"+. c #323C3B",
"@. c #1C400F",
"#. c #1D4210",
"$. c #23440E",
"%. c #24490F",
"&. c #2D4C0E",
"*. c #2D550E",
"=. c #244415",
"-. c #2B4415",
";. c #264A13",
":. c #2D4C15",
">. c #26421B",
",. c #2A431C",
"<. c #264818",
"1. c #2D4A1B",
"2. c #314D13",
"3. c #32451C",
"4. c #334D1B",
"5. c #3A4D1D",
"6. c #2E5212",
"7. c #2F501B",
"8. c #2D5912",
"9. c #335416",
"0. c #345B15",
"q. c #3C5C15",
"w. c #33521B",
"e. c #3B541C",
"r. c #35591B",
"t. c #3B5B1B",
"y. c #3C6214",
"u. c #3F6816",
"i. c #3E621B",
"p. c #264022",
"a. c #2B4323",
"s. c #2E4821",
"d. c #2E422A",
"f. c #324324",
"g. c #384322",
"h. c #344B23",
"j. c #3A4E25",
"k. c #32432C",
"l. c #3A4529",
"z. c #34492B",
"x. c #3A4B2A",
"c. c #355123",
"v. c #3A5325",
"b. c #3E5820",
"n. c #3C5229",
"m. c #2F4131",
"M. c #334234",
"N. c #394333",
"B. c #344831",
"V. c #3B4A33",
"C. c #35413B",
"Z. c #3A453C",
"A. c #39453D",
"S. c #3C4B3C",
"D. c #3F5035",
"F. c #3F6320",
"G. c #405E13",
"H. c #41551E",
"J. c #435C1E",
"K. c #426917",
"L. c #46661D",
"P. c #42631B",
"I. c #48641E",
"U. c #44681B",
"Y. c #456A1B",
"T. c #4A6D1E",
"R. c #4B6C1C",
"E. c #447113",
"W. c #4A7113",
"Q. c #4F7817",
"!. c #47701A",
"~. c #4E721E",
"^. c #4C721B",
"/. c #53751C",
"(. c #537A1C",
"). c #597A1F",
"_. c #435622",
"`. c #445D21",
"'. c #435B22",
"]. c #43552B",
"[. c #455B2B",
"{. c #4A5E2E",
"}. c #435931",
"|. c #42523A",
" X c #466322",
".X c #486421",
"XX c #4D6D22",
"oX c #476028",
"OX c #4B632C",
"+X c #4F6A2B",
"@X c #506C25",
"#X c #526D2C",
"$X c #577722",
"%X c #587723",
"&X c #557A20",
"*X c #5B7B22",
"=X c #333D41",
"-X c #364140",
";X c #394542",
":X c #3C4842",
">X c #445042",
",X c #5D8915",
"<X c #658B1F",
"1X c #638325",
/* pixels */
"P z.f `.4.L.T.i.T. Xn '.E '.`.t.I.L.1Xn T f.e.(.(.*X{.v.%X@X| V A z.f '.w.T.U.i.~. Xn '.E '.`.t.L.L.1Xn L g.e./.~.*XOXv.$X$X} V ",
"A.+.g =.a G <.f f a _.U.d.n.h.}.k.i 9.5.n.v.1.w.i.4.| ~ w.>.z.I +.C.g =.a G <.f f a '.U.d.n.h.[.k.i w.5.j.v.<.w.i.<.| ~ 1.>.z.{ ",
"{ +.+.F { +.W i { W w.f ! +.+. .+.+.g t +...m.h.1.p.z.Y < I ~ A I +.+.W W  .W i { ! w.f ! +.+. .+.+.g t +...m.c.w.R k.Y Z W ~ D ",
"o.{ ..+.{ +.+.+...} b d C.A.Z.+...` M.w  .C.o.k.,. .C.K I } } y { { ..+.{ +.+.+...} x d M.A.C.....` M.w  .C.o.d.,...C.S I  .{ i ",
"} | D D < I } ` D I K r ! W ` { I A Z & P { I ! Y } } D D ` ~ * I +.D D B I } ` ` ` k r ! I ` { I A Z & P { I ! S } } D D ` ! w ",
"D W < @ < p < g >.p E / c 6.s k T 3.e < P e : = = - i a i b < B P I < @ < p < g >.x / / c 9.s k L 3.t < P u : = = = e s i b < < ",
"A.} D < 1. X1.7.w.d >.1.;.1.a : e.~.1.| +.k.M & 7.t.h.a.R v.Q } ;X} D < <.F.1.7.r.d >.1.;.;.a : e.T.1.M.+.k.M = 1.t.h.,.R v.! { ",
"D - D A y R =.0 p H y Z S y D D Y i S  .I Z A * :.1.R W S I { } A - D A y R =.0 G F y Z S < D A b i A } ` Z A : ;.1.R I S I { ` ",
"| ..+.D Z d.t.;.g o.R ~ {  .+.P W K { | } S A t c.~ 1.a #.S +. . ...+.D A d.r.;.g | a.~ {  .+.P W S { | | S A t c.~ 1.g #.S +. .",
"..+.{ V A ~ Y =.f 6 g 0 y +.{ K D S ! ..+.} y e G g g 0 f p.Y G | +.{ A A ! R f f 9 i 0 y +.} S A S ! ......u e G g g w f m Y G ",
"W D - & ; * < w t g i < ; P 1 k k & < J V A u k % * w - w g w r W A - & ; * < y g s e < = P 1 u k & < J A A 1 K % * w = w b w r ",
"C.{ { +.< o.>XC.A.s.k.o.u f./ [.T l.].J Q k.~ I u x R < } { I +.+.{ { o.V o.>XA.Z.a.k.o.u / / [.T l.].J _ k.Q I u c b < } { I +.",
"+.W Z } V Y ! ....I } I I ! W C.+.A.o.` C.Y S  .~ Y S < D V } +.+.I Z } V Y ~  ...I { D I ! W C.+.A.M.` C.Y D } ~ Y S < D B } +.",
"+.+.D { A u ! { +...{ { A I I ..+.F V P ..+.| ..| M. .u ,.m S } ..+.P { A S ! { +...{ I A I I ..+.F Z P | +.....| M. .u a.m S } ",
"k.B.| } A A { { ..! p A D { +.+.+.I Z y g ` R >.| } D ; J.~.4.g d.B.| } A A { { ..! G A D { +.+...I V y g D R >.| { D - J.~.c.g ",
"s y u - u k - - - & & @ < D A < V - < 1 e & % * # & t p s x t e a w u - 1 u & & & & & @ < D Z < V - < 1 w % % * @ & e p s s s w ",
"k 3.c >.,._.T A 1 A.| M.N.I  .P . ; Q X.P e R Y x K XX/.0.>.B < k 3.c >.3._.T A 1 Z.| M.N.I o.P # < U } P u b Y s p XX/.0.>.< u ",
"1.v.z.M.o.~ +.I Q :X` A.;X+.+...1 C.+.;X+.C.A.+.M.! Q a.t.B...b.w.v.B.m.M.d.+.I Q :XI A.;X..+...u C.C.C.+.A.A.+.M.E { a.J.k...v.",
",.+.{ }  .} Q D U +.I W  .} } { J C. .D D +.} W } b R } S.+.[ B.,...{ }  .} Q D I +.` W }  .} { K C. .D D  .} I { m Y } S.+. .M.",
"y C.} { I I x.t B +.+.} I I ..I < A D { { I ,.<.i e w.a.Q B.V.R y ;X{ { W I x.t B +.+. .I { ..I < A D { { I ,.<.i p w.E Q V.B.R ",
"e D I p S V B * p A D V u < A S 1 - < S < * x b e L m M y c s a e C I p D V B = l A D V P < V S 1 = < D < = g x e L m m u c b w ",
"t._.E w t r.c <.(.9 r 4.T _ O.Q N.X.( ,.Y k.T / l.Q l ; / i.t.P.t.e.f.w t 9.x :.Q.9 t w.n _ +.Q O.X.( E L k.T / l.L u < / t.t.t.",
";.8.~ D P.<XOXk.v.c p P.1.I Y a.| +.+.D n n.E h.z.=Xz.h.} R m b %.0.~ P I.<X[.k.v.c g P.>.I Y p.| ..+.I n }.s.h.d.=XB.f.| a.x a.",
"r G ..A ).t.~ } ! M.` r b E g | +...+.I l W W ! } }  .M. .| p I i G  .S ).P.k.` ~ B.` q M E g | +...+.` l Q W W }  .{ (  .| S W ",
"I +.| < -.r.@XY ! { S =.s I +.` I | I P l D  .+. .W a.p | C.~ | ` +...< -.w.@XR ! ` S ;.s I +.I D  .I I l S  .+.} W a.p  .C.~ | ",
"D I < = : d :.d 8 2 s q.* = V @ ; D < u L A B D D u i < = ` } ` D I < = : 6 :.f 8 3 s 0.* = V @ ; D < 1 k V B A A y i < = ` } ` ",
"t A K < < l p Y g n p K Q J V k ) M.E p L K l S < = r t v t - m t u < 1 1 x p S e n S p _ J V k ) k.M e T l l P < ; r t v t < b ",
"D.A.A.D 5.+XV.W c [.+.I W } } k V.;XR g M.M.n.M.D 4.u.K.P.w.9.v.|.C.A.D H.#XB.} >.[.+.W I Q } l B.;XR g m.M.n.C.D 4.K.K.P.w.:.v.",
"I { } A _.Z.} S d.|  .{ D P } < Q  . ... .| W | D 2.t.n.M.P S { ` { } S _.C.} S d.| } { D D } < Q  . ... .| { o.D 2.t.x.M.D S { ",
"{ ` { y P +.+. ... .+.I S o.D : W +.} } ..| ..+.V r ;.~ ` D  ...{ ` } A W +.+. . . .+.D A +.D = { +.} } ..| ..+.Z 5 ;.~ { D  ...",
"| | S i u { I Y R I D S ~ I < u - ` E g >.R D R s % a S P { .. .| | A p S { I Y R I D S | D Z y - I a.b >.Y D R s % d S P } | ..",
"y u < , u p p t c x = & < ; ; J L u r f a t w f x : 4.u u y @ - < u B = i p p a c p ; # ; ; ; K l u s s s a : s x e 4.< A < & < ",
"D h.9 e.e.^.K.t.~.P.z v.f.H.J. XI.q.*Xg.l f.4.R.R.%X.Xc.R.I.{ < V h.9 e.e.^.P.i.^.J.z v.M H.J.`.I.t.%Xg.k E 4.R.T.)..Xc.R..X{ < ",
"+.C.m $.a G f 5 d r e.P.d.z.h.].E r 0.e.j.v.=.9.t.>.~ R :.c a.{ +.C.g $.a G s 6 d r e.P.z.h.,.}.E 0 9.H.j.s.=.9.q.>.E R :.>.a.| ",
"I  . .F W  .I i { W r.f W o.} } +. .p m o.{ ~ 4.:.g f.Y V W R D P .. .F W  .W i I W r.f W o.} { ..} g x | } ~ 4.1.g f.Y < I Y P ",
"{ I } +.{ ..+.+.} ` c d | M.M.} } I | w { | | d.1.} +.A ` ..} i ' { } +.{ ..+.+.} ` x d | M.M.} } ` | w  .| | d.<.} +.S ` ..} p ",
"I } A D < D ` ` D I k r Y I I I P y y = P I D Y R ` ` D D ` ~ : I } Z A < D ` ` D P k r R W I I D y < & P ` P R K ` ` D D ` ! e ",
"P P < @ w x y x -.x N N <.:.c k z 4.r y I e : & & * t t l p < V P { A & w l y s -.x / / c 6.c k z 3.t u I e + # & & r s p p < , ",
"C.} D < 2.i.<.9.9.6 <.1.6.;.a y w.!.1.m.+.d.b ; w.w.a.1.R h.! { :XQ D < -.t.<.:.9.8 c 1.6.=.a y e.T.1.| +.d.x & w.w.,.1.R j.! ` ",
"A - A < Z E f 0 i S y Z y y D A b r S { I A u : <.1.E W p D I I A - A < A E s 0 i S y Z p y A A b i y ` I A y : 1.1.E Y p D ` D ",
"} } | A A d.t.;.a ~ R ! {  .| D K b { Q Q D A t s.! ,.a @.S  .` { { ..A y a.0.;.a ~ a.! I +...A K b I Q W A S t a.! ,.a 9 S  .} ",
" ...{ V A ! Y c f 6 y w y ..P y u Y W  ...{ < r Y g r w d m Y g } +.I V A ! R c a 6 p w < | { u y K W  ...{ < w Y g r w 8 m G g ",
"K A - # = : < : w t p = @ A < 1 u = < u u A < u o % * & 0 b + r S A - # ; : : * t t < - @ 1 < u 1 = < u 1 A : u o % * & 0 b * e ",
"+.{ Y ! = ( |.| C.s.k.Q < f.f.].l l.n.1 Q ( ! S y c n < U } P  .+.I ! ~ = M.S.} S.s.! Q u f.T n.Y k.n.u Q ( ! D < c R < Q } P  .",
"+.P Z ! V g !  . .I K D S ! W o.+.C.| ` +.p A } Q Y S < D V .. . .I A ! V p !  .} I W A D ~ W | o.C.o.I +.g A { Q b S < A V } ..",
"} } D ` < A W W  . .W S A I P } ..D V P } | }  .| | } y m m A {  .} D { V u W { { } } P < D I } ..D V S | | }  .| | { y m x D { ",
"~ k.Q W < u { W } ! S < P { C... .I V w p D R ,.| } D & P.^.4.g R d.Q { < u { W | ! y < I { +...} I V y g D E ,.| } A & t.Q.w.t ",
"r e u < > u = & &   . @ < S V < < - < k y & * * @ = t t r t m w 4 r u < 1 1 = & & % . X 1 D V < < - < k y & * * @ = t e t x s : ",
"* x c >.M 4.L 1 1 +.W o.O.I U D . = Q _ A e l p t S XXW.0.<.V : * x c -.,.4.K 1 1 O.Q o.o.I { D . ; U Q A e l S t S XXW.0.c A y ",
":.w.k.| | ~ ..I I ;XI A.+..... .< +.+.C...C.| } ~ K { a.P.k.} e.:.c.k.| ~ ~ ..P U ;XI A.+.} ..} < +.+.C...M.o. .~ Y { a.q.d.| e.",
"m ..` { } { W V K ..I D } } } I u +. .P P  .{ I ` e b W B.| [ ~ c  .` } } ` W A P ..D P { { { I A +.} I P  .{ I ` e Y ! V.| ] ~ ",
"< +.W I I D f.4 V ..| { P I  .I < A S I ` I >.>.e t :.b ! k.k.R y +.{ I I D f.e < ..+.{ D I } P : S S W { I >.c i t :.m Q k.k.E ",
"e D S e A = B = y u D B u < 1 A > @ & < ; & s s : z m x w s c 5 : D S e A = B = e A D B 1 < A u > & & < ; * t t : z c b e s c r ",
"9.3.E r e :.j c W.%.s 2.n T Q K Q P R ,.l / T M M l w : n 2.9.9.9.4.M r e :.7 c W.$.s 9.n L Q K Q P E ,.l k.T M M k y : n 2.9.4.",
"*.*.~ D q.,X Xk.4.m Y P.-.I Y R } } ..D l n.d.,.d.+.k.T | E x ! 6.*.~ D q.,X Xk.w.m Y P.,.I Y R { {  .I l j.s.h.~ +.k.E } a.b ~ ",
"g Y } y W.9.W } R ~ ` y c R b ~ .. .} I u I I W { } { W  .} g D g Y } y W.9.W { R ~ ` i s Y b Q .. .} P k I W W { } I W  .Q g P ",
"I } } < x f.b.Y Y I K c r P ..P D { W I y D } ..} I R g { +.! } I  .} < x z.'.l Y I S c r I  .D D } W P 1 S }  .} I R g { +.! } ",
"A A - # & g :.s s w t 2.+ = V . # D < ; e < < A D y e < $ ` ` ` A S < # = g -.s s w t 9.+ = V . # A < ; e < < A A y i < $ ` ` I ",
"e < u < < t t p e l y y T u < k T Q n e l k l S ; # w s -.t : e e < y ; < t t p w l u y T u < l ^ Q n e l e l S < = w s -.t * t ",
"S.M.C.A G.XXk.Q c v.+.W W Q ! e k.C.R b ~ ~ v.M.J 2.E.y.P.c.1.z.S.M.A.A q.XXz.W x v.+.W I W W k k.C.R b ~ ~ v.| P 2.K.y.P.c.<.z.",
"D I } < j.C.I S d.~ { { D S } ; Q } } } } | I | D &.i.z.! D S W F I } < j.o.` S ~ ~ { { D S } ; W } } } } | W | D &.i.f.! D S W ",
"I I { y S } } }  .}  .D D o.D ; P  .} }  . .} ..A r =.! I S } } I I { y K  .} } } }  .D D o.D ; P  .} }  . .} ..A 5 =.Q I A } } ",
"| ! u u y I I Y R W D D Q P < : < I R g b Y D Y s O d S P Q } } | ! A y u W W Y R W S S Q P < : < P m g m Y D m s O s K P Q } } ",
"y u ; = e e e w s w & = < < ; e : & 5 f r r w 5 : * c - V < & , y i ; = w t r r t w & = < < = e : & 5 f r r w 5 : * c = < < & < "
};
