/* XPM */
static char *bricks_broken[] = {
"64 64 8 1",
"  c #2D2D2D",
". c #4A4A4A",
"+ c #6B6B6B",
"@ c #8B0000",
"# c #A52A2A",
"$ c #B84C4C",
"% c #C96B6B",
"& c #1A1A1A",
"################################################################",
"################################################################",
"###########$####################################################",
"####$###########################################################",
"##############$###########$#####################################",
"################################################################",
"++++++++++++++++++++++++++++++++++++++++++++++++++++++++++++++++",
"@@@@@@@@@@@@@@@@+@@@@@@@@@@@@@@@@@@@@@@@@@@@@@@@@+@@@@@@@@@@@@@@",
"@@@@@@@@@@@@@@@@+@@@@@@@@@@@@@@@@@@@@@@@@@@@@@@@@+@@@@@@@@@@@@@@",
"@@@@@@@@@@@@@@@@+@@@@@@@$@@@@@@@@@@@@@@@@@@@@@@@@+@@@@@@@@@@@@@@",
"@@@@@@$@@@@@@@@@+@@@@@@@@@@@@@@@@@@@@@@@@$@@@@@@@+@@@@@@@@@@@@@@",
"@@@@@@@@@@@@@@@@+@@@@@@@@@@@@@@@@@@@@@@@@@@@@@@@@+@@@@@@@@@@@@@@",
"@@@@@@@@@@@@@@@@+@@@@@@@@@@@@@@@@@@@@@@@@@@@@@@@@+@@@@@@@@@@@@@@",
"++++++++++++++++++++++++++++++++++++++++++++++++++++++++++++++++",
"########+###############################################+#######",
"########+###############################################+#######",
"###$####+ &&###################$########################+#######",
"########+  &################################################$##",
"########+###############################################+#######",
"########+##$############################################+###$###",
"++++++++++++++++++++++++++++++++++++++++++++++++++++++++++++++++",
"@@@@@@@@@@@@@@@@+@@@@@@@@@@@@@@@@@@@@@@@@@@@@@@@@+@@@@@@@@@@@@@@",
"@@@@@@@@@@@@@@@@+@@@@@@@@@@@@@@@@@@@@@@@@@@@@@@@@+@@@@@@@@@@@@@@",
"@@@@@$@@@@@@@@@@+@@@@@@@@@@@@@@@@@@@@$@@@@@@@@@@@+@@@@@@@@@@@@@@",
"@@@@@@@@@@@@@@@@+@@@@@@@@@@@@@@@@@@@@@@@@@@@@@@@@+@@@@@@@@@@@@@@",
"@@@@@@@@@@@@@@@@+@@@@@@@@@@$@@@@@@@@@@@@@@@@@@@@&+@@@@@@@@@@@@@@",
"@@@@@@@@@@@@@@@@+@@@@@@@@@@@@@@@@@@@@@@@@@@@@@@ &+@@@@@@@@@@@@@@",
"++++++++++++++++++++++++++++++++++++++++++++++++++++++++++++++++",
"########################+###############$#######+##############",
"########################+#######################+##############",
"###$####################+#######################+##############",
"########################+#######################+########$#####",
"########################+#####$#################+##############",
"########################+#######################+##############",
"++++++++++++++++++++++++++++++++++++++++++++++++++++++++++++++++",
"@@@@@@@@@@@@@@@@+@@@@@@@@@@@@@@@@@@@@@@@@@@@@@@@@+@@@@@@@@@@@@@@",
"@@@@@@@@@@@@@@@@+@@@@@@@@@@@@@@@@@@@@@@@@@@@@@@@@+@@@@@@@@@@@@@@",
"@@@@@@@@@@@@@@@@+@@@@@@@@@@@@@@@@@@@@@@@@@@@@@@@@+@@@@@@@@@@@@@@",
"@@@@@@@@@@& @@@@+@@@@@@@@@@@@@@@@@@@@@@@@@@@@@@@@+@@@@@@@@@@@@@@",
"@@@@@@@@@@ &&@@@+@@@@@@@@@@@@@@@@$@@@@@@@@@@@@@@@+@@@@@@@@@@@@@@",
"@@@@@@@@@@@@&@@@+@@@@@@@@@@@@@@@@@@@@@@@@@@@@@@@@+@@@@@@@@@@@@@@",
"++++++++++++++++++++++++++++++++++++++++++++++++++++++++++++++++",
"########+#######################################+###############",
"########+###$###################################+###############",
"########+#######################################+###############",
"########+#######################################+##########$####",
"########+#######################################+###############",
"########+#######################################+###############",
"++++++++++++++++++++++++++++++++++++++++++++++++++++++++++++++++",
"@@@@@@@@@@@@@@@@+@@@@@@@@@@@@@@@@@@@@@@@@@@@@@@@@+@@@@@@@@@@@@@@",
"@@@@@@@@@@@@@@@@+@@@@@@@@@@@@@@@@@@@@@@@@@@@@@@@@+@@@@@@@@@@@@@@",
"@@@@@@@@@@@@@@@@+@@@@@@@@$@@@@@@@@@@@@@@@@@@@@@@@+@@@@@@@@@@@@@@",
"@@@@$@@@@@@@@@@@+@@@@@@@@@@@@@@@@@@@@@@@@@@@@@@@@+@@@@@@@@@@@@@@",
"@@@@@@@@@@@@@@@@+@@@@@@@@@@@@@@@@@@@@@@@@@@@@@@@@+@@@@@@@@@@@@@@",
"@@@@@@@@@@@@@@@@+@@@@@@@@@@@@@@@@@@@@@@@@@@@@@@@@+@@@@@@@@@@@@@@",
"++++++++++++++++++++++++++++++++++++++++++++++++++++++++++++++++",
"########################+#######################+##############",
"########################+#######################+##############",
"#####################&  +#######################+##############",
"####################& &&+#####$#################+##############",
"########################+#######################+##########$###",
"########################+#######################+##############",
"++++++++++++++++++++++++++++++++++++++++++++++++++++++++++++++++",
};
