/* XPM */
static const char *ai_iron_bars[] = {
/* columns rows colors chars-per-pixel */
"64 64 182 2 ",
"   c #03060C",
".  c #06080C",
"X  c #0C0B0E",
"o  c #110E0E",
"O  c #16100E",
"+  c #1B130E",
"@  c #0E0E10",
"#  c #110F10",
"$  c #0F1012",
"%  c #141213",
"&  c #191615",
"*  c #1C1817",
"=  c #171618",
"-  c #191718",
";  c #1D1A1A",
":  c #24160E",
">  c #2B190F",
",  c #221711",
"<  c #251A13",
"1  c #2B1C13",
"2  c #221E1C",
"3  c #311E12",
"4  c #2E2017",
"5  c #25211E",
"6  c #28231F",
"7  c #332114",
"8  c #3B2415",
"9  c #352419",
"0  c #3A2619",
"q  c #3E291A",
"w  c #272220",
"e  c #272320",
"r  c #262221",
"t  c #272321",
"y  c #262220",
"u  c #262322",
"i  c #272322",
"p  c #272421",
"a  c #272422",
"s  c #262320",
"d  c #282320",
"f  c #282321",
"g  c #292321",
"h  c #282420",
"j  c #292420",
"k  c #282421",
"l  c #292421",
"z  c #292521",
"x  c #282521",
"c  c #2A2421",
"v  c #2A2521",
"b  c #2B2521",
"n  c #292621",
"m  c #2A2621",
"M  c #282422",
"N  c #282522",
"B  c #292522",
"V  c #292523",
"C  c #2A2522",
"Z  c #2B2522",
"A  c #292622",
"S  c #2A2622",
"D  c #2B2622",
"F  c #2B2722",
"G  c #2B2623",
"H  c #2B2723",
"J  c #2A2623",
"K  c #2C2722",
"L  c #2C2623",
"P  c #2C2723",
"I  c #2A2624",
"U  c #2B2725",
"Y  c #2C2724",
"T  c #2D2724",
"R  c #2C2726",
"E  c #2A2522",
"W  c #2C2823",
"Q  c #2D2823",
"!  c #2C2824",
"~  c #2D2824",
"^  c #2D2924",
"/  c #2C2825",
"(  c #2D2925",
")  c #2D2825",
"_  c #2E2824",
"`  c #2E2924",
"'  c #2E2925",
"]  c #2F2925",
"[  c #2E2A25",
"{  c #2F2A25",
"}  c #2D2926",
"|  c #2E2926",
" . c #2E2927",
".. c #2D2A26",
"X. c #2E2A26",
"o. c #2F2A26",
"O. c #2F2B26",
"+. c #2E2A27",
"@. c #2F2B27",
"#. c #2F2C27",
"$. c #2E2925",
"%. c #2F2A28",
"&. c #2F2B28",
"*. c #302B26",
"=. c #302B27",
"-. c #302C27",
";. c #312C27",
":. c #322C27",
">. c #302B27",
",. c #302B28",
"<. c #312C28",
"1. c #302C29",
"2. c #312D29",
"3. c #322D28",
"4. c #322D29",
"5. c #332D29",
"6. c #322E29",
"7. c #332E29",
"8. c #312D2A",
"9. c #322D2A",
"0. c #322E2A",
"q. c #332E2A",
"w. c #332F2A",
"e. c #322E2B",
"r. c #342E29",
"t. c #342F2A",
"y. c #342F2A",
"u. c #342F2C",
"i. c #322D29",
"p. c #35302B",
"a. c #36312B",
"s. c #34302C",
"d. c #36312C",
"f. c #36322C",
"g. c #37322C",
"h. c #37322D",
"j. c #36322D",
"k. c #36312C",
"l. c #38322D",
"z. c #38332E",
"x. c #39332E",
"c. c #39342F",
"v. c #3A352F",
"b. c #39332E",
"n. c #393530",
"m. c #3A3530",
"M. c #3B3531",
"N. c #3C3731",
"B. c #3C3630",
"V. c #3B3631",
"C. c #3E3832",
"Z. c #3E3933",
"A. c #412614",
"S. c #452915",
"D. c #4B2B15",
"F. c #402718",
"G. c #432A1A",
"H. c #4B2E1A",
"J. c #532E16",
"K. c #512F18",
"L. c #4D311D",
"P. c #533017",
"I. c #54321B",
"U. c #5A351C",
"Y. c #5D381F",
"T. c #633A1E",
"R. c #693C1E",
"E. c #452F20",
"W. c #4B3321",
"Q. c #533621",
"!. c #593720",
"~. c #5D3A21",
"^. c #403A34",
"/. c #423C36",
"(. c #443E38",
"). c #453F38",
"_. c #653D21",
"`. c #47403A",
"'. c #49423B",
"]. c #48423A",
"[. c #6A4125",
"{. c #744727",
/* pixels */
"X } <.l 5 l l l w 5 5 l d l 2 X 2 (.B.<.} } l l l l <.c.s.m.} % X ,.l 2 w U l l l U l 5 2 2 ; X ; x.<.*.} l l l d <.l s.c.s.2 X ",
"2 B.} <.<.<.<.<.} l l l W l l o s.x.2 5 l P } l l P l l *.<.<.* ; C.W -.<.<.<.<.} l l l l l 6 o w } d l l l 5 l l l 2 l l l l % ",
"2 <.d } <.} l l } } *.r.} P l % } P <.<.} } d l 5 5 5 l } l l % 2 <.l } } Y l l } } <.c.*.l l % l } l l 5 5 5 l l P 5 2 l P 2 o ",
"; <.l l w 5 P } } } P P } } 6 % 2 } *.l l 5 2 2 2 5 6 2 2 5 5 o ; <.l l d l l P *.} } l l l } % 2 r.l l l 5 5 l } l l 2 l 5 2 % ",
"; <.5 5 5 5 l 2 5 l l } Y } 5 % 5 P l d 2 5 <.<.} l P 6 5 5 5 X ; s.5 5 d l 5 l l l l l l l W % 2 <.6 l l } } l 5 5 l l l 2 l % ",
"% *.P l l l l P l 5 l l l 5 2 % ; d 2 5 5 5 Y <.P l } l 5 2 5 % % r.} l l l l l 5 5 5 P l P l % * P l l l } l l P } P W 5 5 5 o ",
"X & 5 l l l P l 2 2 2 * * 2 5 # 2 <.} } } } } P l l l 5 6 5 5 # # 2 5 5 l 5 6 5 2 5 2 2 2 5 * % % * 2 5 W W l 6 6 d 2 ; ; 2 % X ",
"% % & % % % % % % X X X X X X X X ; 2 % % * & % X X # # & % o X X # % % # # o # X X o o % o o X X # # % % % % % o X # X X X % % ",
"p.m.*.& X & } 2 X l u.U U <.p 2 } ; ; m.<.5 5 @ ; ,.} <.<.<.<.%.,.l l w 2 % } } l 2 5 } } } U <.l w 5 * * ; % X ; 5 X % } } <.x.",
"6 l l l % } } l 2 ).l 5 l } l l *.} s.p.-.} } ; ).^.s.B.c.p.<.P l l P } -.} ].<.*.-.-.<.r.-.l <.r.*.} W } } } & } } % } B.W } l ",
"l l l l % l 6 2 w } ; 5 p 2 w l l } p.<.r.*.} 5 r.5 W } } *.} l 5 5 l l w * 5 l p } s.m.<.<.} w 5 } l 5 w l 5 % l 5 2 } 5 l P 5 ",
"l } } 6 % 5 } & ; r.l } l } } <.r.*.r.x.<.l l w <.} l 5 w l l l <.<.P l d * s.<.<.} 5 l } Y ,.l 5 l l d } } l % } d 2 ,.} 5 5 } ",
"<.<.l l % 5 P & - r.l l d l l l l d r.<.d w } ; s.*.<.*.P w } <.<.} } x.; 5 x.} r.*.} *.r.m.<.<.r.} } P } *.} & } W ; <.} * l } ",
"} l P l % l } ; % 5 2 2 ; 5 5 2 ; l -.*.} p.<.% 2 s.x.U <.s.} l 5 U } w % ; #.w r l l ; ; w ; 2 <.Y 5 2 ; ; & % l P 2 U H l } } ",
"5 5 2 & X * 5 % X * ; % l * X % - & % % % % % % % % % % % & % & % % % % % % % % O O % % % % % @ X X ; w 2 l ; X 2 6 % 2 } l 6 5 ",
"X # % % # % % X & m.} 5 x.<.% X % % % % % % , , % % % % % % % , < % % % % % % % , < & % % % # X X l Z.<.} <.<.# X o X X % # % o ",
"2 r.^.B.B.x.<.% w x.2 } } <.- @ % @ @ @ X X 3 < X X . X X X X 1 < X X . . X X X < 3 X X X X X X % s.<.2 l 5 <.& # } <.<.} 2 * ; ",
"} -.x.s.} 5 l ; ; x.5 <.*.} % @ % .         7 ,             . 7 < .             1 7         . # & c.<.2 *.} <.% } s.W } } <.*.*.",
"* 5 } P 2 ; l ; ; m.l } P p.* @ % .   .   . 7 ,   . . . .   . 8 1   . . . . .   7 3   . .   . % ; s.c.p <.<.} % ^.} <.l l 6 l 5 ",
"& 5 5 * 5 } *.& ; B.} } } s.- % % . . . . . S.1   . . . . . X G.7 . . . . . .   G.8   . . . X % 5 <.c.l } <.<.& m.*.l l 5 5 * * ",
"2 } l 5 5 *.Y ; & *.} } } U % % %           H.,               P.1               G.8           % 5 x.(.} } <.} & l } -.} 2 & * * ",
"} } } <.6 l } * % 2 5 l <.w # & 4 1 1 < 0 A.T.1 3 8 0 G.8 7 8 _.9 , 8 H.0 q G.7 Y.G.1 7 8 F.8 8 1 } ^.p.p.<.2 % } P } } } 5 2 5 ",
"5 5 l 5 l 5 2 # X 2 ; % - % @ , 7 7 8 8 D.P.U.1 S.U.U.Y.P.I.J.U.1 8 P.G.I.P.H.D.L.0 8 I.H.U.T.D.7 ; 5 w 5 * % # 2 W 2 2 5 P } l ",
"% % & & % % % X ; B.<.U s.p $ o & + o o o O 8 O o + o o o O O A.3 X o o + O o o 4 < o o o O o < % % ; 2 l w ; X X % o % % % % % ",
"<.} x.m.<.<.<.* w s.} } -.<.% % @         . H.<             . U.8               q S.        . @ % s.`.P r.<.<.% # 2 * X X ; 2 ; ",
"*.l l } *.s.<.2 5 r.<.l *.,.% & % . . . . X I.3   . . . .   X !.1 . . . . . .   U.I.  . . . . % 2 C.r.5 } } } # } x.l X ; c.} } ",
"<.} l P <.*.5 2 w s.l l } <.* % - X   .   X I.3   . . . .   X I.<   . . . . .   I.K.  . .   X * 5 r.} <.5 } } % s.l l X } -.5 *.",
"P <.} <.<.} 5 5 2 s.} l } <.2 % % .   .   X W.<   . . . .   X T.8 .   . . . .   I.D..   .   . * 5 s.<.x.5 Y } @ <.l l % } <.l } ",
"} Y l 6 l 2 2 ; w s.*.l <.#.; % % .   .   X Q.<   . . . .   X T.S.. . . . . .   L.D..   . . . = 2 p.s.} l l l % } 6 5 ; 2 s.2 2 ",
"5 l 5 5 ; 2 l % ; r.<.l <.<.w - % .       . T.7             . Y.S..             U.H.        . % 5 x.m.l } l <.& d l 5 5 % *.; * ",
"P l l ; 5 P 2 % * <.,.} l r.l % * X . X X X T.1 . X X X X X X I.S.X X X X X X   I.G.. X X . X ; * s.B.*.2 l s.% 2 2 l 2 # 5 l P ",
"% % # o % # o X % l w 5 5 w % 1 0 0 q U._.R.[.7 H._.!.~.[.U.U.{.q 8 P.Y._.U.!.I._.L.8 I.Q.0 8 S.1 %.B.<.} l r.; & & & X X X % % ",
"# l s.u.w ; 2 % X 5 2 2 } l % < < < 7 1 7 S.G.< 1 1 1 S.q 3 A.U.1 < 3 3 1 1 S.A.G.1 1 8 < 3 < < , } m.<.<.l -.; % 5 ; p 5 w 2 X ",
"5 (.x.-.-.s.r.2 2 ^.} <.r.-.2 % & .   .   . D.1     . . . . X D.7         . .   8 7       . X & & p.p.r.<.} <.; <.<.} } *.-.W & ",
"2 s.5 *.s.} } 2 p s.l } *.*.2 % = .   .   X U.3   . .       X _.8   . . .   .   H.8   . .   X * ; x.<.} <.} m.w } l d P l <.} & ",
"; <.l } l l } 5 w r.l } P <.; - = . . .   X Q.<   . . . .   X !.8 . . . . . .   H.8 . . . . X * ; s.} l } <.*.& } l 5 l l Y l % ",
"; <.l l 5 l 5 5 w p.l } d <.& % - .   .   X E.1   . . . .   X ~.G.. . . . . .   G.8   . .   X * 5 r.W l <.<.l * -.l P P -.*.l ; ",
"; } l } W l } ; ; <.5 } } } % * % .   .   X L.7   . .   .   X T.D.. . . . . .   0 8 .   .   . * w r.<.l } <.p & l w l -.*.l 2 * ",
"& 2 l 5 l 5 d & % <.l l 2 w % % X . . . . X Y.3   . . . .   X K.8 . . . . . .   8 8 . . . .   % l l <.l } -.w % } l l 5 2 5 5 & ",
"X X # % % % X # @ & 2 & & ; X @ % .       . P.1             . S.7 .             8 8         . @ % ; ; w l Y 2 X % 2 * * & & % o ",
"U } 2 & X % w % X ; p %.%.; % & 2 X X o o X A.< X X X o % # o P.0 X X X o o o X G.7 X X o X % 2 ; & & ; 2 & # X & l 2 2 2 ; 2 l ",
"H <.s.<.% <.s.l * m.-.r.<.-.2 1 0 q G.Q.~.J.Y.4 D.U.H.L.T.~.P.[.0 7 L.G.G.H.~.L.Q.q 8 Y.L.I.L.8 : p.].} l l & X C.s.<.<.<.} <.} ",
"} l 5 l % <.} 5 * s.l l } <.p + * & & , + > S.< + % , + + + < 8 < + & , + + , & 1 1 & : + O + * o B.(.5 Y r.2 # s.*.} l l } l l ",
"5 l l l % <.W 2 ; p.l } -.r.2 % %           A.&             . A.7 .             8 7         . = * c.<.l <.<.5 % <.*.} l } } P l ",
"} <.} l % } 2 ; } r.2 P l w % * % X . . . X 8 &   . . . . . X H.8 . . . . . .   8 7 . . . . X % ; B.} W p.} l ; l r.} 2 l } } 5 ",
",.l l 5 % l 2 2 U <.l l l <.; & % .   .   . 0 <   . .   .   X q 3 .   . . . .   3 8 .   .   . % 5 (.5 l l s.-.; 5 s.<.l l l } <.",
"2 5 5 5 X ; P 2 2 s.} l } } w % # X . . X . G.3 . . . . X . . 8 7 X X . . . . . 3 7 X X . X . % 2 r.2 l w <.} ; & 5 H } } l l 5 ",
"% % & & % % ; X 2 s.U } *.5 ; % @ % % = * ; 0 7 % @ % ; ; * * 7 1 % % * % % ; ; 8 7 % % % ; % @ * <.p l l } s.; X X & * % % o o ",
"%.U s.s.x.m.5 % ; l 5 5 P w X @ * ; 2 2 5 5 1 < % ; w 2 5 w 2 + : % 5 l d - l 5 < > & ; 2 l d ; % w l l 2 l l % 2 l @ ; 2 ; 2 w ",
"} } l l l l H 5 X % 2 * 2 r - l p } s.<.<.<.l 2 * s.B.} } <.<.} } <.<.s.B.} ; <.} d <.<.<.<.<.s.u.* 2 w % & % # <.-.2 B.<.<.<.} ",
"l l Y 5 ; l } ; - ^.B.Z.x.} p.m.p.<.c.m.r.<.c.U w (.U } s.m.m.s.s.(.s.} } 5 & `.C.} } } <.<.<.<.P l } #.w w ; % *.d ; <.p w l l ",
"} w 2 & 5 l } * 2 m.} 5 p 5 5 w l <.<.U l d P w w w 5 <.5 2 5 ; 2 5 2 5 5 2 w c.2 5 l 5 5 l } l l <.} } } } l & } l ; s.l l l l ",
"} 5 2 p l l } ; w s.l <.} } *.} l l l Y *.l l l ; } } Y l <.} } } l l 5 w l ; } l l l w 2 2 5 Y } p w } l l 2 % } l 2 l d l 5 2 ",
"} } } l 2 5 -.2 & <.l w l l Y } l 5 w Y <.<.<.5 2 *.2 5 U } U U P } <.<.<.P * Y l w 5 l } s.*.l *.*.} 5 l l 5 % } l ; 2 l l Y } ",
"p H l l l l p ; * <.l l Y w l p 5 l } l P } } & % l } } <.p.*.*.} W l Y 5 p & 2 } } l W -.} W l l l l l p 5 ; % U l ; ; W 5 5 l ",
"% % # % % % o X X % % % % % * ; ; ; * % % X X % X # & 2 2 5 ; & & % % % % & X X & * % % % # # % % % % # # % X X % & # X % % % % ",
"X ; w U U U ,.2 % * ; ; ; % % @ % ; ; ; - % % # * - % % * % o X X % 5 % X @ % * 2 ; ; & & & # X # & % % # @ % % w ; 2 U ; & % X ",
"; (.x.<.} } P l l } } } } l 5 ; 5 W P l l l 5 2 ; 5 5 ; * * 5 & % ^.c.l w l Y <.s.<.} 5 5 5 & X w l l Y l l 5 2 ; 5 2 ; * & 2 * ",
"w } 5 } <.<.} P s.} d 5 2 l l & ; } l l w 2 5 } } 5 * % ; l l % 2 C.5 l l P -.<.l 2 2 2 5 w 2 % 2 l l l l 2 5 } l 5 * % ; 5 l % ",
"w <.l } p w l 5 5 l d l l d l * * } H l l w Y p 2 2 5 5 l H w # ; p.w } <.s.} 5 l l l 5 * 2 l % ; } l l l w l l ; 2 w 5 l W 2 % ",
"; <.w ; & ; ; 5 l l 5 l l 5 W & # ; ; 2 5 5 2 * ; 5 d 2 2 2 2 X * } U <.} l 5 l p } } ; w l l % @ ; 2 2 2 2 2 & ; 5 5 2 2 ; * % ",
"% l w ; l U l Y 5 2 w l l 5 l % X X @ X X # % % % % % X X # o X & *.l l l l l l 5 5 2 l l 5 5 % X X # X X % % % % % # X % & % X ",
"# 2 l l l 5 w 5 ; * 2 ; % ; ; X - <.<.; & l r.U 2 2 2 2 ; 5 2 X # 5 } l l 5 5 5 2 2 2 2 & & & X % s.<.r.} p <.Y 2 2 2 2 2 5 5 # ",
"X % % % & % % % # X X X X # % X <.r.l W } s.} 2 ; 2 l l } W l % X % & % & % % % # X X X X X % X %.<.l } } } l 2 * l l l } U l % "
};
