/* XPM */
static char *metal_wall_dark[] = {
/* width height num_colors chars_per_pixel */
"64 64 8 1",
/* colors */
". c #1A1A1A",
"+ c #252525",
"@ c #303030",
"# c #3B3B3B",
"$ c #464646",
"% c #515151",
"& c #5C5C5C",
"* c #676767",
/* pixels */
"@@@@@@@@@@@@@@@@@@@@@@@@@@@@@@@@@@@@@@@@@@@@@@@@@@@@@@@@@@@@@@..",
"@###############################################################..",
"@#$$$$$$$$$$$$$$$$$$$$$$$$$$$$$$$$$$$$$$$$$$$$$$$$$$$$$$$$$$$$+.",
"@#$%%%%%%%%%%%%%%%%%%%%%%%%%%%%%%%%%%%%%%%%%%%%%%%%%%%%%%%%%%%%%.",
"@#$%&&&&&&&&&&&&&&&&&&&&&&&&&&&&&&&&&&&&&&&&&&&&&&&&&&&&&&&&&&%.",
"@#$%&**********************************************************%.",
"@#$%&*++++++++++++++++++++++++++++++++++++++++++++++++++++++++*%.",
"@#$%&*+......................................................+*%.",
"@#$%&*+......................................................+*%.",
"@#$%&*+......................................................+*%.",
"@#$%&*+......................................................+*%.",
"@#$%&*+......................................................+*%.",
"@#$%&*+......................................................+*%.",
"@#$%&*+......................................................+*%.",
"@#$%&*+......................................................+*%.",
"@#$%&*+......................................................+*%.",
"@#$%&*+......................................................+*%.",
"@#$%&*+......................................................+*%.",
"@#$%&*+......................................................+*%.",
"@#$%&*+......................................................+*%.",
"@#$%&*+......................................................+*%.",
"@#$%&*+......................................................+*%.",
"@#$%&*+......................................................+*%.",
"@#$%&*+......................................................+*%.",
"@#$%&*+......................................................+*%.",
"@#$%&*+......................................................+*%.",
"@#$%&*+......................................................+*%.",
"@#$%&*+......................................................+*%.",
"@#$%&*+......................................................+*%.",
"@#$%&*+......................................................+*%.",
"@#$%&*+......................................................+*%.",
"@#$%&*+......................................................+*%.",
"@#$%&*+......................................................+*%.",
"@#$%&*+......................................................+*%.",
"@#$%&*+......................................................+*%.",
"@#$%&*+......................................................+*%.",
"@#$%&*+......................................................+*%.",
"@#$%&*+......................................................+*%.",
"@#$%&*+......................................................+*%.",
"@#$%&*+......................................................+*%.",
"@#$%&*+......................................................+*%.",
"@#$%&*+......................................................+*%.",
"@#$%&*+......................................................+*%.",
"@#$%&*+......................................................+*%.",
"@#$%&*+......................................................+*%.",
"@#$%&*+......................................................+*%.",
"@#$%&*+......................................................+*%.",
"@#$%&*+......................................................+*%.",
"@#$%&*+......................................................+*%.",
"@#$%&*+......................................................+*%.",
"@#$%&*+......................................................+*%.",
"@#$%&*+......................................................+*%.",
"@#$%&*+......................................................+*%.",
"@#$%&*+......................................................+*%.",
"@#$%&*+......................................................+*%.",
"@#$%&*+......................................................+*%.",
"@#$%&*+......................................................+*%.",
"@#$%&*+......................................................+*%.",
"@#$%&*+......................................................+*%.",
"@#$%&*++++++++++++++++++++++++++++++++++++++++++++++++++++++++*%.",
"@#$%&**********************************************************%.",
"@#$%&&&&&&&&&&&&&&&&&&&&&&&&&&&&&&&&&&&&&&&&&&&&&&&&&&&&&&&&&&%.",
"@#$%%%%%%%%%%%%%%%%%%%%%%%%%%%%%%%%%%%%%%%%%%%%%%%%%%%%%%%%%%%%%.",
"@#$$$$$$$$$$$$$$$$$$$$$$$$$$$$$$$$$$$$$$$$$$$$$$$$$$$$$$$$$$$$+.",
"................................................................"
};
