/* XPM */
static char *metal_wall_rusty[] = {
/* width height num_colors chars_per_pixel */
"64 64 8 1",
/* colors */
". c #3A2A1A",
"+ c #4A3A2A",
"@ c #5A4A3A",
"# c #6A5A4A",
"$ c #7A6A5A",
"% c #8A7A6A",
"& c #9A8A7A",
"* c #AA9A8A",
/* pixels */
"@@@@@@@@@@@@@@@@@@@@@@@@@@@@@@@@@@@@@@@@@@@@@@@@@@@@@@@@@@@@@@..",
"@###############################################################..",
"@#$$$$$$$$$$$$$$$$$$$$$$$$$$$$$$$$$$$$$$$$$$$$$$$$$$$$$$$$$$$$+.",
"@#$%%%%%%%%%%%%%%%%%%%%%%%%%%%%%%%%%%%%%%%%%%%%%%%%%%%%%%%%%%%%%.",
"@#$%&&&&&&&&&&&&&&&&&&&&&&&&&&&&&&&&&&&&&&&&&&&&&&&&&&&&&&&&&&%.",
"@#$%&**********************************************************%.",
"@#$%&*@@@@@@@@@@@@@@@@@@@@@@@@@@@@@@@@@@@@@@@@@@@@@@@@@@@@@@@@*%.",
"@#$%&*@##########+++++++++++++++++++++++++++++++++++##########@*%.",
"@#$%&*@#$$$$$$$$+.................................+$$$$$$$$$$#@*%.",
"@#$%&*@#$%%%%%%+...................................+%%%%%%%%$#@*%.",
"@#$%&*@#$%&&&&+.....................................+&&&&&&%$#@*%.",
"@#$%&*@#$%&**+.......................................+****&%$#@*%.",
"@#$%&*@#$%&*+.........................................+***&%$#@*%.",
"@#$%&*@#$%&+...........................................+**&%$#@*%.",
"@#$%&*@#$%+.............................................+*&%$#@*%.",
"@#$%&*@#$+...............................................+&%$#@*%.",
"@#$%&*@#+.................................................+%$#@*%.",
"@#$%&*@#...................................................+$#@*%.",
"@#$%&*@+.....................................................+#@*%.",
"@#$%&*@.......................................................+@*%.",
"@#$%&*+.........................................................+*%.",
"@#$%&*...........................................................+*%.",
"@#$%&+............................................................+%.",
"@#$%+..............................................................+.",
"@#$+.................................................................",
"@#+..................................................................",
"@+...................................................................",
"@....................................................................",
"+....................................................................",
".....................................................................",
".....................................................................",
".....................................................................",
".....................................................................",
".....................................................................",
"+....................................................................",
"@....................................................................",
"@+...................................................................",
"@#+..................................................................",
"@#$+.................................................................",
"@#$%+..............................................................+.",
"@#$%&+............................................................+%.",
"@#$%&*...........................................................+*%.",
"@#$%&*+.........................................................+*%.",
"@#$%&*@.......................................................+@*%.",
"@#$%&*@+.....................................................+#@*%.",
"@#$%&*@#...................................................+$#@*%.",
"@#$%&*@#+.................................................+%$#@*%.",
"@#$%&*@#$+...............................................+&%$#@*%.",
"@#$%&*@#$%+.............................................+*&%$#@*%.",
"@#$%&*@#$%&+...........................................+**&%$#@*%.",
"@#$%&*@#$%&*+.........................................+***&%$#@*%.",
"@#$%&*@#$%&**+.......................................+****&%$#@*%.",
"@#$%&*@#$%&&&&+.....................................+&&&&&&%$#@*%.",
"@#$%&*@#$%%%%%%+...................................+%%%%%%%%$#@*%.",
"@#$%&*@#$$$$$$$$+.................................+$$$$$$$$$$#@*%.",
"@#$%&*@##########+++++++++++++++++++++++++++++++++++##########@*%.",
"@#$%&*@@@@@@@@@@@@@@@@@@@@@@@@@@@@@@@@@@@@@@@@@@@@@@@@@@@@@@@@*%.",
"@#$%&**********************************************************%.",
"@#$%&&&&&&&&&&&&&&&&&&&&&&&&&&&&&&&&&&&&&&&&&&&&&&&&&&&&&&&&&&%.",
"@#$%%%%%%%%%%%%%%%%%%%%%%%%%%%%%%%%%%%%%%%%%%%%%%%%%%%%%%%%%%%%%.",
"@#$$$$$$$$$$$$$$$$$$$$$$$$$$$$$$$$$$$$$$$$$$$$$$$$$$$$$$$$$$$$+.",
"@###############################################################..",
"@@@@@@@@@@@@@@@@@@@@@@@@@@@@@@@@@@@@@@@@@@@@@@@@@@@@@@@@@@@@@@..",
"................................................................"
};
