/* XPM */
static char *metal_wall_light[] = {
/* width height num_colors chars_per_pixel */
"64 64 8 1",
/* colors */
". c #505050",
"+ c #606060",
"@ c #707070",
"# c #808080",
"$ c #909090",
"% c #A0A0A0",
"& c #B0B0B0",
"* c #C0C0C0",
/* pixels */
"@@@@@@@@@@@@@@@@@@@@@@@@@@@@@@@@@@@@@@@@@@@@@@@@@@@@@@@@@@@@@@..",
"@###############################################################..",
"@#$$$$$$$$$$$$$$$$$$$$$$$$$$$$$$$$$$$$$$$$$$$$$$$$$$$$$$$$$$$$+.",
"@#$%%%%%%%%%%%%%%%%%%%%%%%%%%%%%%%%%%%%%%%%%%%%%%%%%%%%%%%%%%%%%.",
"@#$%&&&&&&&&&&&&&&&&&&&&&&&&&&&&&&&&&&&&&&&&&&&&&&&&&&&&&&&&&&%.",
"@#$%&**********************************************************%.",
"@#$%&*@@@@@@@@@@@@@@@@@@@@@@@@@@@@@@@@@@@@@@@@@@@@@@@@@@@@@@@@*%.",
"@#$%&*@+++++++++++++++++++++++++++++++++++++++++++++++++++++++@*%.",
"@#$%&*@+..................................................++++@*%.",
"@#$%&*@+..................................................++++@*%.",
"@#$%&*@+..................................................++++@*%.",
"@#$%&*@+..................................................++++@*%.",
"@#$%&*@+..................................................++++@*%.",
"@#$%&*@+..................................................++++@*%.",
"@#$%&*@+..................................................++++@*%.",
"@#$%&*@+..................................................++++@*%.",
"@#$%&*@+..................................................++++@*%.",
"@#$%&*@+..................................................++++@*%.",
"@#$%&*@+..................................................++++@*%.",
"@#$%&*@+..................................................++++@*%.",
"@#$%&*@+..................................................++++@*%.",
"@#$%&*@+..................................................++++@*%.",
"@#$%&*@+..................................................++++@*%.",
"@#$%&*@+..................................................++++@*%.",
"@#$%&*@+..................................................++++@*%.",
"@#$%&*@+..................................................++++@*%.",
"@#$%&*@+..................................................++++@*%.",
"@#$%&*@+..................................................++++@*%.",
"@#$%&*@+..................................................++++@*%.",
"@#$%&*@+..................................................++++@*%.",
"@#$%&*@+..................................................++++@*%.",
"@#$%&*@+..................................................++++@*%.",
"@#$%&*@+..................................................++++@*%.",
"@#$%&*@+..................................................++++@*%.",
"@#$%&*@+..................................................++++@*%.",
"@#$%&*@+..................................................++++@*%.",
"@#$%&*@+..................................................++++@*%.",
"@#$%&*@+..................................................++++@*%.",
"@#$%&*@+..................................................++++@*%.",
"@#$%&*@+..................................................++++@*%.",
"@#$%&*@+..................................................++++@*%.",
"@#$%&*@+..................................................++++@*%.",
"@#$%&*@+..................................................++++@*%.",
"@#$%&*@+..................................................++++@*%.",
"@#$%&*@+..................................................++++@*%.",
"@#$%&*@+..................................................++++@*%.",
"@#$%&*@+..................................................++++@*%.",
"@#$%&*@+..................................................++++@*%.",
"@#$%&*@+..................................................++++@*%.",
"@#$%&*@+..................................................++++@*%.",
"@#$%&*@+..................................................++++@*%.",
"@#$%&*@+..................................................++++@*%.",
"@#$%&*@+..................................................++++@*%.",
"@#$%&*@+..................................................++++@*%.",
"@#$%&*@+..................................................++++@*%.",
"@#$%&*@+..................................................++++@*%.",
"@#$%&*@+..................................................++++@*%.",
"@#$%&*@+..................................................++++@*%.",
"@#$%&*@+++++++++++++++++++++++++++++++++++++++++++++++++++++++@*%.",
"@#$%&*@@@@@@@@@@@@@@@@@@@@@@@@@@@@@@@@@@@@@@@@@@@@@@@@@@@@@@@@*%.",
"@#$%&**********************************************************%.",
"@#$%&&&&&&&&&&&&&&&&&&&&&&&&&&&&&&&&&&&&&&&&&&&&&&&&&&&&&&&&&&%.",
"@#$%%%%%%%%%%%%%%%%%%%%%%%%%%%%%%%%%%%%%%%%%%%%%%%%%%%%%%%%%%%%%.",
"@#$$$$$$$$$$$$$$$$$$$$$$$$$$$$$$$$$$$$$$$$$$$$$$$$$$$$$$$$$$$$+.",
"................................................................"
};
