/* XPM */
static char *metal_wall[] = {
/* width height num_colors chars_per_pixel */
"64 64 8 1",
/* colors */
". c #2A2A2A",
"+ c #3A3A3A",
"@ c #4A4A4A",
"# c #5A5A5A",
"$ c #6A6A6A",
"% c #7A7A7A",
"& c #8A8A8A",
"* c #9A9A9A",
/* pixels */
"@@@@@@@@@@@@@@@@@@@@@@@@@@@@@@@@@@@@@@@@@@@@@@@@@@@@@@@@@@@@@@@.",
"@###############################################################.",
"@#$$$$$$$$$$$$$$$$$$$$$$$$$$$$$$$$$$$$$$$$$$$$$$$$$$$$$$$$$$$#+.",
"@#$%%%%%%%%%%%%%%%%%%%%%%%%%%%%%%%%%%%%%%%%%%%%%%%%%%%%%%%%%%%%%.",
"@#$%&&&&&&&&&&&&&&&&&&&&&&&&&&&&&&&&&&&&&&&&&&&&&&&&&&&&&&&&&&%.",
"@#$%&**********************************************************%.",
"@#$%&*........................................................*%.",
"@#$%&*........................................................*%.",
"@#$%&*........................................................*%.",
"@#$%&*........................................................*%.",
"@#$%&*........................................................*%.",
"@#$%&*........................................................*%.",
"@#$%&*........................................................*%.",
"@#$%&*........................................................*%.",
"@#$%&*........................................................*%.",
"@#$%&*........................................................*%.",
"@#$%&*........................................................*%.",
"@#$%&*........................................................*%.",
"@#$%&*........................................................*%.",
"@#$%&*........................................................*%.",
"@#$%&*........................................................*%.",
"@#$%&*........................................................*%.",
"@#$%&*........................................................*%.",
"@#$%&*........................................................*%.",
"@#$%&*........................................................*%.",
"@#$%&*........................................................*%.",
"@#$%&*........................................................*%.",
"@#$%&*........................................................*%.",
"@#$%&*........................................................*%.",
"@#$%&*........................................................*%.",
"@#$%&*........................................................*%.",
"@#$%&*........................................................*%.",
"@#$%&*........................................................*%.",
"@#$%&*........................................................*%.",
"@#$%&*........................................................*%.",
"@#$%&*........................................................*%.",
"@#$%&*........................................................*%.",
"@#$%&*........................................................*%.",
"@#$%&*........................................................*%.",
"@#$%&*........................................................*%.",
"@#$%&*........................................................*%.",
"@#$%&*........................................................*%.",
"@#$%&*........................................................*%.",
"@#$%&*........................................................*%.",
"@#$%&*........................................................*%.",
"@#$%&*........................................................*%.",
"@#$%&*........................................................*%.",
"@#$%&*........................................................*%.",
"@#$%&*........................................................*%.",
"@#$%&*........................................................*%.",
"@#$%&*........................................................*%.",
"@#$%&*........................................................*%.",
"@#$%&*........................................................*%.",
"@#$%&*........................................................*%.",
"@#$%&*........................................................*%.",
"@#$%&*........................................................*%.",
"@#$%&*........................................................*%.",
"@#$%&*........................................................*%.",
"@#$%&*........................................................*%.",
"@#$%&*........................................................*%.",
"@#$%&*........................................................*%.",
"@#$%&*........................................................*%.",
"@#$%&&&&&&&&&&&&&&&&&&&&&&&&&&&&&&&&&&&&&&&&&&&&&&&&&&&&&&&&&&&.",
"@#$%%%%%%%%%%%%%%%%%%%%%%%%%%%%%%%%%%%%%%%%%%%%%%%%%%%%%%%%%%%%%.",
"................................................................"
};
