/* XPM */
static const char *ai_stone_wall[] = {
/* columns rows colors chars-per-pixel */
"64 64 141 2 ",
"   c #0F1218",
".  c #111217",
"X  c #12141A",
"o  c #16191F",
"O  c #181A1F",
"+  c #171920",
"@  c #1B1D22",
"#  c #1E2126",
"$  c #1F2328",
"%  c #212227",
"&  c #23252A",
"*  c #26292D",
"=  c #292B2F",
"-  c #2B2D32",
";  c #2E3135",
":  c #313336",
">  c #333539",
",  c #36393C",
"<  c #393B3E",
"1  c #3C3E41",
"2  c #3E4144",
"3  c #414346",
"4  c #444649",
"5  c #48474D",
"6  c #47494B",
"7  c #4A4B4E",
"8  c #4D4E51",
"9  c #4F5152",
"0  c #525355",
"q  c #555758",
"w  c #57585A",
"e  c #5A5C5D",
"r  c #5E605F",
"t  c #5D5F60",
"y  c #605F62",
"u  c #5F6061",
"i  c #626464",
"p  c #666867",
"a  c #666768",
"s  c #676869",
"d  c #6A6B6C",
"f  c #696B6C",
"g  c #6A6C6C",
"h  c #6B6C6D",
"j  c #6C6C6D",
"k  c #6C6D6F",
"l  c #6C6E6E",
"z  c #6D6E6E",
"x  c #6A6C6C",
"c  c #6E706F",
"v  c #6F6F70",
"b  c #6E6F70",
"n  c #6F7170",
"m  c #6F7171",
"M  c #6F7171",
"N  c #717272",
"B  c #717273",
"V  c #717373",
"C  c #727373",
"Z  c #737473",
"A  c #727374",
"S  c #737574",
"D  c #737475",
"F  c #737575",
"G  c #747675",
"H  c #757675",
"J  c #757676",
"K  c #767776",
"L  c #737474",
"P  c #767877",
"I  c #787A77",
"U  c #767778",
"Y  c #777778",
"T  c #777978",
"R  c #777A78",
"E  c #777978",
"W  c #787978",
"Q  c #787879",
"!  c #787979",
"~  c #787A79",
"^  c #797A79",
"/  c #7A7B79",
"(  c #78787A",
")  c #78797A",
"_  c #797B7A",
"`  c #797A7B",
"'  c #797A7A",
"]  c #7A7B7A",
"[  c #7B7D7B",
"{  c #7A7C7A",
"}  c #7B7C7C",
"|  c #7B7D7D",
" . c #7C7D7D",
".. c #7C7E7D",
"X. c #7D7E7E",
"o. c #7C7E7E",
"O. c #7E7E7F",
"+. c #7B7C7B",
"@. c #7E807F",
"#. c #7F817F",
"$. c #7F807F",
"%. c #80817F",
"&. c #7E7F80",
"*. c #7F7F80",
"=. c #7F8080",
"-. c #7F8080",
";. c #808181",
":. c #818382",
">. c #828382",
",. c #838583",
"<. c #838584",
"1. c #848584",
"2. c #858786",
"3. c #868787",
"4. c #838483",
"5. c #878887",
"6. c #888987",
"7. c #878788",
"8. c #878888",
"9. c #878888",
"0. c #888989",
"q. c #898B89",
"w. c #898A89",
"e. c #898B8A",
"r. c #8D8F8E",
"t. c #8E8F8F",
"y. c #8C8C8C",
"u. c #8E908F",
"i. c #8F908F",
"p. c #90908F",
"a. c #8F9190",
"s. c #909291",
"d. c #919392",
"f. c #949494",
"g. c #989797",
"h. c #989897",
"j. c #999A99",
"k. c #989A9A",
"l. c #9C9C9C",
"z. c #A0A09F",
"x. c #A2A2A1",
/* pixels */
"4 J u u d > e d.<.n X.0.0 1 k.4 , =.' N t ' A i < < S ' d 7 0 3 1 U i u s > u d.<.n X.0.0 2 k.4 > =.' N t ' N i 1 , A } g 6 9 7 ",
"' } i a d 4 X.@.' N u J i 6 u.> i ' t i i i e e : u <.N w 4 2 3 v X.u a d 4 *.@.T N u J a 7 u.> i ' t i i a e e > u ;.N w 6 1 6 ",
"i i i a w 1 U T ' S s S e 3 0., 6 s a s a e 0 a & 8 s w 7 6 7 - e i i a e 1 S ' ' J s S e 3 0., 6 s s s a e w i % 0 d w 6 7 8 : ",
"a d e t z 2 *.' ' <.,.{ 9 : ;.: 6 w e e 0 4 4 8 X 3 g e e a g 2 t z e t z 3 ;.' ' 8.<.{ 9 : ;.: 6 w e e 0 4 6 8 X 4 z e t i s 7 ",
"t i w w e @ > 0 6 6 8 1 - = < - = - = = # > 0 0 w : e e t s e : 0 a e w w # , 9 6 7 7 1 ; = , - = - - - # > 9 0 e > w e i d 0 < ",
"- > > -   6 4 1 0 i 4 * X.0.} ' a s 6 s 1 * 3 6 > o * - - - - & - > ; - X 6 4 2 9 i 4 & X.u.X.' s s 6 d 1 * 4 6 , X * ; - - = * ",
"v t e J > v 0 e 8.0.t < <.N { e 9 0 t S 2 , q 3 6 e 4 9 > : g i v t e ' , N 0 e 8.8.i 1 <.N { e 9 0 w S 3 > w 3 6 w 6 0 > ; z a ",
"t 0 0 g 8 1 0 ' ' X.6 ; n a N J N i 9 s > z N w s d d ' 0 6 t 0 t 0 0 z 0 2 0 ' { X.7 > n i N J n i 0 a : n A 0 s g s ' 0 6 e 0 ",
"9 7 0 8 > e s { T T 7 ; ;.i J e e g 0 t - w a 6 e i w t > 4 i e 8 7 0 8 > e x { I ' 7 - ;.a Z e t s w u - e a 6 w i e t , 4 i t ",
"7 8 w 6 * N P ' ;.s , # 0 7 9 7 4 0 > * . 7 a 7 6 w n N - 4 s t 8 7 w 6 * n T ' %.g 1 # 0 6 0 6 4 0 ; = X 6 i 7 7 0 N Z - 6 s e ",
"; * ; * @ > e 7 1 2 @ > 4 1 2 ; * 2 6 6 6 , 2 1 4 4 1 ; # % - , ; * ; * @ : e 8 1 < # < 4 , 3 ; * 2 7 6 6 1 1 < 4 4 1 ; # & ; > ",
"i 4 & 3 z u d g g : 3 ;.;.J v 8 7 i 8 0 e > - w 6 0 7 w 1 3 i u a 6 & 4 z t d s v > 1 <.<.A N 8 7 a 8 0 e , : w 3 q 8 w < 3 s i ",
"a t % u U z z z <.w i e 9 e t > 6 w 4 5 8 = 3 a u u t i < 0 z i a u % e ' z x x <.e i w 0 t i > 4 0 4 5 8 = 4 a u u t i < 0 z i ",
"s t # i e i s a a 6 0 t e e i 3 2 0 5 6 8 - 2 6 1 9 t w ; 7 s i a e # i w i p a a 4 0 u e e i 3 2 0 5 6 8 - 1 6 2 9 t w : 7 s a ",
"z e + t i s c z N 2 7 z 0 w z 6 3 e 6 8 8 = 3 u 7 8 w u , e z a z e + e i s c z c < 8 z 0 w z 6 3 t 8 8 8 - 3 u 6 8 w u , w v s ",
"6 < * 6 0 9 9 6 9 - = < ; ; ; @ - > : - - - & , 1 - > 1 - > 6 2 6 < * 6 0 8 9 6 7 ; = < ; : ; @ - > : - ; - * , 1 - , 1 = , 6 3 ",
"* 0 @.' N : 0 e 1 & 0 e t i e & w s 0 0 8 - U d.g.;.X.N 4 < 8.< % e ;.' n > 9 e 3 & 0 e u i t & w d 0 8 3 - ' d.g.<.;.v 6 2 8.1 ",
"w @...X.,.0 d g a : t s v z ' 6 ' i t i w 7 x.h.g.l.d.;.0 4 d.< 7 ;.} X.,.0 s g s ; e s z j ' 6 ' a i a 0 6 x.g.g.l.d.1.w 6 g.2 ",
"s @.J N @.9 e t s < 4 d a a a 6 a w e u 6 0 x.;.g.g.l.' 8 1 y.< e ;.J N X.8 t t s 2 4 s a a a 6 a e e i 0 0 l.;.g.h.k.' 7 3 d.2 ",
"u u e e s > s i 8 & 6 a t t 8 > z e 0 e 0 6 x.0.g.t.;.Z 6 , <.; w u e e s > s i 9 $ 8 a u t 8 > z e 0 e e 7 l.0.g.p.;.Z 7 < 8., ",
"= > ; : ; & 3 - @ * : - * < : & e e e e 2 @ 4 t e 3 1 < - * < = = ; ; : ; % 3 - # & - - * > ; = t e 0 e 4 @ 3 e 0 2 , < - = < - ",
"X.;.6 > e J ' 6 3 <.=.' 0 : : ; - > > -   7 3 < 9 q 1 @ 8 g.' X.} ;.7 > e J ' 6 1 <.;.' 0 > > : - > , -   8 6 2 9 0 1 @ 7 f.} } ",
"' ,.e i @.X.X.a 0 g.d.x.a : s s N i u X.1 N 6 7 t q 4 & 0.0.;.P ' ,.e a X.X.=.a 0 x.f.x.i : s s S i i @.1 S 6 0 i 0 6 & <.<.} P ",
"N Z e e J u u s 8 t.t.l.e 3 i 0 t 0 0 z 0 2 6 e 6 8 < * J %.X.J N Z e e J e u s 0 y.t.l.e 3 i 0 i 0 0 z w 3 7 e 6 8 < * N X.X.Z ",
"n ' e a { s N s 3 <.=.g.8 3 a t 0 7 0 7 , 8 3 6 6 1 1 - ;.,.,.} N { e a @.s n g 1 ;.;.g.0 3 a u 0 8 0 8 , 0 4 6 6 2 1 - X.;.;.{ ",
"t w ; > 0 0 w 7 - g z T 3 3 s e 8 6 w 6 * 6 4 6 8 6 : @ 6 0 t u t w ; > 7 0 w 7 - z g ' 3 3 x t 9 6 w 6 * 8 6 6 8 4 > # 6 9 t i ",
"- 8 0 0 0 1 X + % : : * = * > 3 , - ; * @ - < - * > + < 4 1 1 = * 8 0 0 0 2 X O & ; ; = & * : 3 < - ; * @ * 1 - * : X < 6 1 1 - ",
"e ' g v J s : e 0 i e 7 a , 2 ' ' 8 % 6 N e z d s : 4 <.1.J N 7 9 ' s z J s > t 8 i t 7 a , 2 J P 7 & 4 n e g i s : 4 ,.1.J N w ",
"0 a i i s 4 9 d 0 0 9 9 0 > 1 J ' i & e X.J e i X.0 a w 9 t i > 6 s t u a 4 8 f 0 0 9 9 w , 3 J P i & e X.S e i } 0 a e 9 u t 1 ",
"w v i i d 8 0 0 3 3 4 2 6 , 6 ' J e # i e X.' t e 1 0 i e t i 2 8 v t i s 6 0 9 4 3 4 4 6 , 6 P Z e # i 0 } X.e e 1 0 i e t u 6 ",
"0 J s d s 6 4 9 2 4 7 6 8 : 6 X.X.s X e i w N A s < 8 d 0 e z 4 4 S a s a 6 4 9 2 6 9 4 8 - 0 ....a X e s e d N a , 0 d 0 e s 0 ",
"- : < , , - ; 8 6 3 4 6 < & > 4 4 , = 2 0 0 6 7 0 - - , ; > > # * > < , , - - 7 7 6 3 4 , & , 4 4 < & 3 0 0 4 7 0 - ; , ; > > # ",
"4 d 0 0 e : t 0.' g ' ' 6 1 y.< ; d T J a z g i : > g N i 6 4 , 2 d 0 0 e ; t <.{ s T ' 6 3 y., - z { J i g n i ; > s n u 6 3 < ",
"U { u i a 3 <.;.T N u Z a 9 y.> a ;.a g s p u u < u ;.s 0 6 4 < z X.u a a 3 <.%.P Z u Z s 7 y.< s =.a z d s i r , u ;.s 0 4 2 4 ",
"u u e u e 1 A J P A i z e 3 <., 6 s g s a e w a = 0 i 0 6 7 9 = w i r i e 2 J J P N i n e 3 <., 7 z g d s e 0 p - 0 i 0 6 7 8 - ",
"i p e e a 3 ' ' P ;.;...8 - { : 2 e t t e 7 6 6 O 6 i 0 e i z 6 e s e e s 3 } ' P ,.@.' 7 - X.- 2 e i t e 8 6 8 + 6 i 0 e i g 9 ",
"e e w w 0 # > 8 4 6 6 2 : - , * = : - = # > 0 0 w < e 0 u s e , 0 u 0 w 0 # > 9 4 6 7 1 - - , * = : - = # > w 0 w < e 0 e s e 2 ",
"; > > - X 7 8 3 0 i 2 * X.y.X.' s i 9 J < & 3 4 ; X = - - = * * ; > > - X 7 8 3 w u 2 = X.0.} ' s i 9 J < % 2 3 : o * = - - * - ",
"J i u X.< T e i 8.8.t , =.z ' i 0 8 w } 4 = w 4 6 0 6 0 > > z a N i t X.< T e t <.0.e > X.n { u 0 8 w X.4 - e 4 4 0 6 8 > > g s ",
"t 0 0 z 0 7 i X.' X.9 > z i N J c i 0 s < s z 8 s g s P 8 7 i 0 t w 0 z 0 7 i X.' X.0 > s i N J n i 0 s < s z 0 s s z ' 7 7 i w ",
"0 7 0 8 > s c ' I J 0 1 =.i J u i i e i = t a 3 w i e w : 4 u t 0 8 0 8 > s N ' T J w 1 X.u J u i a w e - e a 3 w i w e > 3 i i ",
"9 8 w 6 * z Z ' @.Z 6 % 0 9 0 6 3 9 : = . 6 e 3 3 w s i - 6 p e w 8 w 7 * z J ' @.N 6 % 9 9 9 6 2 9 > = . 6 u 4 3 e s i ; 4 s t ",
", - - * + : e 6 < 3 & > 2 , 2 - * 4 9 8 0 > < < 2 1 1 > & # - < > - - * + : e 6 , 4 # : 3 < 2 - * 3 8 8 8 > < , 2 3 1 > # % - < ",
"a 6 & 6 z i n s z > 1 <.1.N v 6 7 n a d U 3 = e 0 0 e u 1 1 i i a 7 & 4 s i N i a : 3 ;.;.J N 6 6 d t i v 3 - e 0 w e i 1 < i a ",
"s u % e X.z s s =.w i 0 0 t y > 6 d i u s > 6 v g z a v 1 0 n a s u % e X.z p s ;.0 i e 8 t i > 4 i w w t ; 6 N s d a z 1 0 S f ",
"s t @ i e r i 0 e 3 9 u e e i 1 6 v i i d , 3 7 2 e s t ; 0 c a s e @ i e r i 0 e 6 7 i e e i 2 4 a w e u : 3 7 1 e s t ; 0 n s ",
"n t O e i i x a s , 7 d 9 w z 6 4 n a s a > 4 a 6 9 i g < e Z s c u O w a i x i p , 7 s 0 w z 7 4 s e t i > 3 i 7 8 u g < e J z ",
"4 , = 3 6 6 3 3 6 - - 1 : > : % - , 1 < > - * < 1 - , 2 - : 7 2 4 < = 3 6 4 4 4 3 - - 1 : : : % - , < , > - & 1 1 - < 1 = > 6 2 ",
"% 7 { } z & 4 e , @ 0 0 0 i e & u N e w 4 = J t.t.;.X.d 3 > S 1 @ 6 ' X.s & 4 e > # 0 0 0 i t & t N i e 3 = U y.y.;.;.a 3 , N < ",
"0 T J P ,.8 s v s * s z s z N 1 J a i i w 6 l.d.t.p.t.;.0 6 <., 9 ' J P ,.9 a s s * a z s x N 3 Z a i i w 4 x.d.t.d.0.<.0 6 <.< ",
"u T z g J 7 t t s , 7 z a a a 3 a e e i 0 8 k.X.p.d.g.X.7 3 <.- e { z s P 7 e e a > 7 z a a a 6 s e e i 0 8 g.;.d.d.g.{ 7 3 ;.> ",
"0 u w w s < a u 6 & 7 i e e 7 : N t 0 i u 3 t.<.t.0.X.Z 6 : z * 7 t e e i < a e 6 & 6 u e e 6 ; N u w i e 4 p.@.t.0.} N 6 : g = ",
"= > ; ; * & 1 - # & - * & ; - & i e w u 0 % < 8 4 : : < = & = & = ; : > = % 1 * @ * - % & > - % u e e e 9 # 1 8 3 > : < = * = & ",
"N X.6 ; e s N 4 3 0.N J 9 - : = - , > - . 0 0 6 e w 1 # 7 <.Z X.' %.6 - e s n 4 3 0.J S 8 - ; - > > : - X 0 8 6 e 0 3 % 6 <.J } ",
"J ;.u t <.P Z e 7 f.y.k.e : s s z i e ' 1 g 0 0 t w 6 & X.c P J J ,.u t ,.P N e 7 p.0.k.i = s s s u e ' < d 0 0 t w 6 = X.x P J ",
"N N e i S e q i 4 y.y.g.w 2 i w i 0 9 x 8 4 8 e 6 8 1 = z z ' N n N e i Z e e u 4 y.y.g.e 3 e 0 e 0 8 a 8 6 9 w 6 8 2 = c z ' N ",
"z P 0 a @.a n i 1 t.' p.8 2 e e 0 9 0 6 > 0 4 6 6 3 3 = X.%.X.' z P 0 i @.s z i < t.X.t.7 3 e e 0 8 9 6 > 0 3 6 6 2 3 = { @.{ P ",
"e 0 = : 7 0 e 4 ; J s P , 1 i e 0 6 0 3 * 0 6 8 8 6 , # 6 7 w e e w - : 0 0 w 4 : J s J , 1 a e 0 6 0 4 = 9 6 6 8 4 , # 4 7 w w ",
"& 4 0 9 9 2   + & - ; = - - ; < < - - & @ * 3 - * , o ; 2 1 < * & 4 9 0 8 < X O & ; - = - - ; < 1 - - * @ & 3 - & > + : 1 , < - ",
"w T s n N d > i w a 9 6 s P 3 s N 6 & 3 a e s e w & 6 X.;.' P 7 8 { a n n s : i e a 0 6 x ' 3 s N 6 & 3 i e s e w = 3 X.<.' Z e ",
"w i w a a 6 0 a 0 0 9 0 8 w 7 n c u & 0 X.J e t J 6 s e 0 a p < 7 a e i a 6 8 a w w 9 9 8 w 7 N c u & 0 X.J 0 i Y 7 z e 0 a i 3 ",
"0 d i i s 6 0 0 6 4 4 2 4 0 6 g z 0 @ i e J J e w < 0 s i a a < 6 g i i s 6 8 0 6 3 4 3 4 0 6 g c 0 @ i e J P e w < e s i a i 3 ",
"7 z a p a 6 < 0 4 6 0 7 8 3 ; N Z u o w i 0 d z i > 0 z 0 w s 4 3 n a a i 6 1 0 3 6 0 7 8 3 : Z Z i o w i 0 s z i : 0 v 0 0 a 7 ",
"- > < < < : * 4 < < < 1 , # & 4 6 < @ : 4 4 3 0 0 = < 4 , , 1 & = > < , < : = 4 < < < < < & & 4 6 < @ : 3 4 2 0 0 = , 3 , < 1 & "
};
