/* XPM */
static const char *ai_wooden_planks[] = {
/* columns rows colors chars-per-pixel */
"64 64 160 2 ",
"   c #120E0D",
".  c #13100D",
"X  c #1B120F",
"o  c #1E1410",
"O  c #20140F",
"+  c #221611",
"@  c #261913",
"#  c #2B1C16",
"$  c #2D1F18",
"%  c #301F17",
"&  c #301F18",
"*  c #2F2019",
"=  c #33221A",
"-  c #3A251C",
";  c #3E281E",
":  c #40271E",
">  c #43291F",
",  c #422A20",
"<  c #442A20",
"1  c #452A20",
"2  c #442B20",
"3  c #452B20",
"4  c #442B21",
"5  c #452B21",
"6  c #462A20",
"7  c #462B20",
"8  c #472B20",
"9  c #462B21",
"0  c #452C21",
"q  c #462C20",
"w  c #472C20",
"e  c #462C21",
"r  c #472C21",
"t  c #462D21",
"y  c #472D21",
"u  c #462C22",
"i  c #472C22",
"p  c #462D22",
"a  c #472D22",
"s  c #462E22",
"d  c #472E22",
"f  c #452B21",
"g  c #482C21",
"h  c #492C21",
"j  c #482D21",
"k  c #492D21",
"l  c #4A2D21",
"z  c #482C22",
"x  c #492C22",
"c  c #482D22",
"v  c #492D22",
"b  c #482D23",
"n  c #492D23",
"m  c #4A2D22",
"M  c #482E22",
"N  c #492E22",
"B  c #482F22",
"V  c #482E23",
"C  c #492E23",
"Z  c #482F23",
"A  c #492F23",
"S  c #4A2E22",
"D  c #4B2E22",
"F  c #4A2F22",
"G  c #4B2F22",
"H  c #4A2E23",
"J  c #4B2E23",
"K  c #4A2F23",
"L  c #4B2F23",
"P  c #4C2F23",
"I  c #4D2F23",
"U  c #4B2F24",
"Y  c #4C2F24",
"T  c #4A2E23",
"R  c #493023",
"E  c #4A3023",
"W  c #4B3023",
"Q  c #4C3023",
"!  c #4D3023",
"~  c #4E3023",
"^  c #493024",
"/  c #4A3024",
"(  c #4B3024",
")  c #4C3024",
"_  c #4D3024",
"`  c #4C3124",
"'  c #4D3124",
"]  c #4D3025",
"[  c #4D3125",
"{  c #4E3124",
"}  c #4F3124",
"|  c #4E3125",
" . c #4C3224",
".. c #4D3225",
"X. c #4E3224",
"o. c #4E3225",
"O. c #4F3225",
"+. c #4F3325",
"@. c #4F3226",
"#. c #4E3326",
"$. c #4F3326",
"%. c #4D3124",
"&. c #503225",
"*. c #503325",
"=. c #503226",
"-. c #503326",
";. c #513326",
":. c #513327",
">. c #523327",
",. c #503426",
"<. c #513426",
"1. c #513427",
"2. c #523426",
"3. c #523427",
"4. c #533427",
"5. c #523527",
"6. c #533527",
"7. c #543527",
"8. c #553527",
"9. c #543627",
"0. c #523426",
"q. c #533528",
"w. c #543528",
"e. c #543628",
"r. c #553628",
"t. c #543728",
"y. c #553728",
"u. c #553729",
"i. c #563728",
"p. c #563729",
"a. c #563628",
"s. c #583729",
"d. c #573828",
"f. c #563829",
"g. c #573829",
"h. c #573929",
"j. c #57392A",
"k. c #573829",
"l. c #583829",
"z. c #583929",
"x. c #593929",
"c. c #593A29",
"v. c #58392A",
"b. c #59392A",
"n. c #5A392A",
"m. c #5A392B",
"M. c #593A2A",
"N. c #5A3A2A",
"B. c #5B3B2B",
"V. c #5E3B2B",
"C. c #5D3C2C",
"Z. c #5E3C2C",
"A. c #5E3D2C",
"S. c #5E3D2D",
"D. c #5A392A",
"F. c #603D2D",
"G. c #633F2D",
"H. c #623F2E",
"J. c #613E2D",
"K. c #64412F",
/* pixels */
"; v.H 7 ( H q q $ Z.U q H H q q $ e.q o.o.( o.; # ;.7 o.q H ;.@ : P q o.o.o.o.& ( H q o.o.q o.$ W 3.H U o.H ;.= = 3.( o.o.( o.$ ",
"; v.H q ( H H q $ Z.U H H U q q $ e.q o.o.o.o.; $ e.7 o.q H 3.$ ; ! 7 o.o.o.o.= ( q q o.o.7 ;.$ H 3.( H o.> ;.= = 3.H o.o.q H $ ",
"; v.o.q o.H H q $ Z.U H H U H q & e.H ;.o.o.o.; $ g.: o.7 q 3.@ ; H H o.o.H H = o.H 7 o.o.> ;.$ H 3.U 7 U 7 ;.= = 3.7 o.o.q H $ ",
"; v.e.7 o.q H q $ Z.H H q ( q q & e.U e.o.o.o.; $ g.< o.7 H ;.@ ; ! o.Y o.H q = ( Y 7 o.o.7 ;.$ W 3.U 7 H ( ;.= = 3.H U H q H $ ",
"; v.;.7 o.q H q # G.o.H H o.q ; $ v.( e.H H ;.; = g.: o.q H ;.$ ; H H o.o.H H = 3.o.7 o.o.> ;.$ W 3.( q H ( ;.= = 3.U H 7 H Y $ ",
"- o.o.H o.q H q o K.v.7 H o.q ; $ Z.( e.H H v.; $ e.> o.7 H ;.$ ; H P ( e.o.o.= g.o.7 o.o.: o.@ W 3.H H H o.;.= = 3.U ( 7 H H $ ",
"- o.o.o.o.H o.q X o.Z.7 H o.7 ; $ Z.o.e.H q v.; + o.7 o.7 H ;.$ ; H H o.e.o.H & e.U 7 o.o.q P @ W e.o.H 7 o.;.= = 3.q o.7 H H $ ",
"- o.o.H o.H U H   % V.H Y U H ; $ Z.U ;.H 7 v.: + o.7 o.7 H ;.# ; q q o.7.o.q % e.U 7 o.o.q Y @ W e.o.H q o.;.= = ;.: o.H H H $ ",
"- ;.o.7 o.q H q   - G.o.U U o.; $ G.H o.o.H v.; + o.7 o.7 H ;.@ q H H ;.7.o.H % e.Y 7 o.o.q o.@ ( 3.o.H q H o.= = 3.7 o.o.o.H @ ",
"- 3.7.H o.W o.q + v.3.e.U o.H ; $ v.H o.! U v.; + o.7 ( q H ;.@ = < : - = q - @ g.W q o.o.q H @ W 3.o.o.7 H P = = ;.: o.o.o.H @ ",
"- 3.H ! e.q o.q + v.7.3.H o.H ; $ e.o.H 7 o.v.; + o.7 ( 7 H ;.@ # - @ - # o = # e.H H H U H H @ H 3.;.o.7 H ;.= $ o.; o.o.H H $ ",
"- 3.: q e.H H q # e.e.o.( o.H ; $ e.H Y o.( e.: + o.7 U 7 H ;.$ o.e.- e.o.= e.; 3.o.P H H U H @ < ;.e.o.7 H ;.= = 3.< 3.;.v.o.$ ",
"- ;.: o.o.o.7 < $ v.;.o.o.o.H ; $ e.H o.( ( ;.; + o.7 H 7 H ;.$ q ;.: U Y : o.- 3.o.H q H U H @ ; ;.e.o.7 H ;.= o : - - - ; ; + ",
"- ;.< o.q o.q 7 # e.o.o.o.o.H ; $ e.o.o.( U v.: + o.7 H q H ;.$ q 3.: o.o.q o.- 3.H q H H H H @ - ;.7.o.7 H ;.= X - = - - = @ + ",
"- o.H ;.H o.H 7 # e.3.o.U H q < & g.q o.( o.e.< + o.7 W H H 3.$ H 3.q o.o.H ;.- g.W 7 H H H H @ - ;.3.H 7 o.3.* - v.q 3.3.o.7 $ ",
"- ;.: o.;.o.o.< # e.o.o.H q H 7 = g.: o.Y H H q @ o.q H o.3.;.$ H ;.q H o.H ;.- v.o.H H H H H @ ; 3.3.H 7 o.;.= - V.;.H o.q : $ ",
"- 3.= H e.o.; 7 $ e.;.o.H 7 H q # e.; o.3.q q o.@ ( 3.o.o.3.;.$ q ;.q : o.U ;.- V.;.H 7 H H H @ q 3.7.H 7 H o.= - V.o.o.o.q : $ ",
"& ;.= q e.H = < # e.3.o.H 7 o.H X $ # $ = @ * $ o o.;.o.o.3.;.$ H o.H H o.H ;.- g.o.H > U H H @ ( 3.3.q q o.e.& - v.7 o.o.H > $ ",
"X # o # * # + o @ g.3.o.H 7 o.q + o.* - ; - = = + o.3.o.H ;.;.$ W ! H o.( W ;.- 3.W o.> H H H @ H 7.3.q H q o.= - v.H o.o.H > $ ",
"= H $ o.3.- + : # e.3.o.: q o.7 = G.= ; 7.o.q W + o.e.o.H ;.;.$ q ! H o.o.H e.; 3.H H 7 o.H H @ W 7.;.q H q o.= - v.H o.o.H q $ ",
"- ;.; o.;.- + H # e.e.o.7 7 o.7 $ e.; o.Y U : q + o.7.o.H ;.;.$ H o.H o.e.U e.; W H ;.: H H o.@ o.;.H H 7 ( 3.= - v.H H H o.o.$ ",
"= o.7 o.o.q $ q # e.3.o.U q o.7 $ e.; o.o.H v.H + o.e.H H ;.;.$ H P H o.e.U e.; H ;.! 7 H H o.@ H ;.o.U 7 H 3.= - v.H U > H o.$ ",
"$ o.7 o.o.H = < # g.3.o.H q o.7 $ e.o.o.o.U v.H + o.e.o.q ;.;.$ H ;.H o.e.H g.; H o.7 > o.q ! @ : o.o.W > 7 3.= - v.H H > H o.$ ",
"= o.7 o.o.H = < # g.3.o.q H o.7 = v.e.o.o.H 3.H + o.e.3.H ;.;.$ q 3.U o.e.H V.; H 7 H : q q ! @ : o.W ( : 7 3.= - V.H o.7 H o.@ ",
"- ;.> o.o.H - 7 # e.o.o.q H o.7 @ ;.o.H o.H 7.H + o.e.;.Y 3.;.$ H 3.( ( e.H G.; H q U ; : q P @ : H q o.H 7 3.= - V.H o.7 o.H X ",
"- ;.> o.o.H q q # e.H o.q H 7 q + 7 e.H o.o.o.7 + o.e.;.o.e.;.$ H 7.q H e.H G.; H H H > > H o.@ : H 7 o.H 7 3.& - v.;.o.7 o.H X ",
"- ;.> o.o.H H 7 # e.H o.q H H q + 7 e.U o.o.o.q @ o.e.e.o.7.;.$ H 7.q H e.H G.; o.q H > 7 H ;.@ : H q o.q q 3.= = 3.7.o.7 ( H X ",
"- 3.7 o.o.H H 7 # e.H o.q H o.q + 7 v.o.( ( o.q + o.e.7.o.3.;.$ W 3.H o.3.o.Z.; 3.7 ! 7 q o.o.@ : ;.o.H > H 3.= # ;.o.o.> W H X ",
"- e.H ( o.H H 7 # e.H o.q > o.q + > e.o.o.o.o.: @ o.e.7.o.7.o.$ H 7.H ;.3.o.Z.; 3.H 7 H H q o.@ < 3.;.( q H 3.= # 3.> H 7 H H o ",
"- e.;.U o.H H q # e.U o.H : o.H + 7 e.o.H o.W ; @ o.e.7.o.7.o.@ W e.! H 3.o.Z.; 3.o.H o.o.H o.@ < ;.o.o.H 7 3.= @ ;.> H 7 H q X ",
"- e.3.H q o.;.q @ o.o.q H 7 o.H + 7 ;.P 7 o.H ; @ o.e.7.o.3.H @ q ;.q H ;.;.Z.; 3.o.o.o.o.H P @ 4 o.U o.H 7 ;.= @ 3.7 U 7 H 7 X ",
"- e.;.H 7 o.e.7 @ o.q H o.: o.H + 7 ;.H q o.H ; @ o.e.e.;.3.H @ : ;.H o.o.3.G.; 3.o.H o.o.H o.@ : ;.o.H U q H = @ 3.7 H 7 H > + ",
"- e.;.H H o.e.; + o.o.;.7.7 o.H + 7 o.W H o.o.- + ;.3.e.;.H H $ : o.U o.o.3.Z.; o.o.H ( o.q ! @ < ;.! U o.H H = @ 3.7 H 7 H > o ",
"- e.3.U H o.e.; + o.e.o.o.o.o.q + H o.o.Y o.o.q @ o.7.3.e.H H = : ;.H 7.o.3.G.; W H 7 o.H H o.@ < o.H o.o.H ! = @ ;.7 H 7 H > X ",
"- v.o.H o.o.e.; + o.H o.3.U ;.H + H ;.o.o.o.o.( * 3.3.7.s.H H % : ;.o.3.o.3.v.; H o.Y o.q H ;.@ < o.H o.o.( ;.= # 3.7 H 7 Y : X ",
"; v.H H ;.o.e.; + o.> H o.U e.W + o.o.o.o.7 Y H * g.;.7.v.H H % ; e.3.H o.3.e.; H o.o.o.q 7 ;.@ : o.Y o.o.H ;.= # ;.7 H H o.: X ",
"; v.;.H ;.o.g.- + o.7 o.o.H 7.W + H H W o.7 o.( * e.;.e.v.H H $ ; e.3.U o.3.e.; H H o.o.H > ;.@ : o.q o.H 7 ;.= # ;.7 H H o.; X ",
"; v.3.H 3.o.g.= + o.; o.o.H e.H @ o.> H o.7 o.H * e.;.v.v.q H $ ; e.3.o.H q v.- : ;.;.o.H ; 3.@ < o.q ;.o.> ;.= # ;.7 H H o.; X ",
"; v.3.H 7.o.e.= @ o.- 3.H H H H + o.7 H o.> o.< $ g.o.3.V.H H $ ; e.3.( q 7 v.- < P H o.H ; ;.@ < o.H H P 7 ;.= @ ;.7 H H o.: + ",
"; v.o.;.7.o.e.= o U 7 v.o.o.q o.# 3.7 H o.> o.< $ g.: ;.e.H P @ ; e.3.( q H o.% q : ;.e.< = s.@ < o.H : H q ;.= @ ;.7 H H o.: + ",
"; v.H v.7.o.g.-   $ - - = $ @ + $ v.> H o.> H 7 # g.7 H o.H H @ ; e.3.o.q q o.$ + @ = = @ @ = X q o.o.7 q Y ;.= # ;.H q q o.7 + ",
"; v.H v.3.o.g.& @ < + ; H - . $ $ g.> H o.H H q # g.> H o.q H @ = e.3.o.H q o.= < = - ; < = # X q o.o.H : o.;.= # o.H q H o.7 + ",
"; v.H V.;.o.e.- $ o.# 7.e.( = H & g.: H ;.7 H 7 # g.> H o.7 H @ = e.3.H H q H = Z.- H ;.;.- o.+ < o.o.> : o.3.= # o.q q H o.H + ",
"; v.H V.;.o.3.; # o.& o.W q < q $ e.7 H o.q H 7 $ g.7 H Y q P @ - e.3.o.H 7 P = g.- q o.o.< H + < 3.;.q 7 3.e.= @ o.q q H o.o.@ ",
"; v.H Z.;.o.;.; @ e.< o.U H : q $ e.7 > q ;.H < $ g.7 H o.7 P @ - e.3.o.H 7 3.- e.H v.H o.o.;.+ < e.;.H o.7 ;.= @ o.7 7 H H ! @ ",
"; v.H v.o.e.;.; @ e.- ( 7 ( ; q = 7.: H H ;.P < # g.7 H o.q P @ - 3.3.Y H ! v.- o.o.7.H o.e.3.+ < 7.3.H o.; o.= @ ;.7 7 H q P @ ",
"; v.H ;.( e.o.7 $ e.- o.H o.q 7 = ;.7 H H ;.W 7 $ g.7 H H q H @ - ;.e.o.H ! v.; H 7.o.H o.e.o.+ < 7.3.o.o.H 3.= @ ;.q > ( 7 H @ ",
"; v.H ;.U e.o.7 $ e.H o.H 3.;.7 $ o.7 o.o.o.H 7 $ e.: ( H q H @ = ;.;.o.H o.v.; W e.o.U o.e.H + q 3.H H Y 3.e.= @ 3.7 : U 7 H @ ",
"- e.q ;.o.e.3.< $ e.H o.H o.o.q @ H H o.o.7.o.7 $ e.: o.o.q H + - H : ;.o.;.v.; H e.o.U o.v.Y + o.7.: ; ;.- q = @ 3.7 > Y 7 H @ ",
"- ;.7 ;.o.3.;.< $ e.H ( q o.o.q # H q o.H Z.;.< $ g.: H o.q H @ = o.H o.o.3.v.; H 3.3.( o.v.7.O > v.: H e.$ H - @ 3.q > ( 7 H @ ",
"- ;.> o.( e.o.< $ e.H H 7 o.o.q # H > o.U 7.! o.* e.7 H o.o.H = = 7.;.o.;.3.v.; H 3.7.H U 3.v.@ + - + & = @ & o # ;.o.7 H 7 ! @ ",
"- ;.> o.( 3.o.< $ e.H H q o.o.7 $ 3.: o.H o.H g.* e.7 q H 3.H = = 3.U o.3.3.e.; ( o.e.U U 7.3.@ $ W - - H = # + @ ;.q q H 7 o.@ ",
"- ;.> o.o.7 o.< $ e.: H 7 o.H 7 = e.: U H H q g.* e.7 7 H ;.H = - ;.o.o.P o.s.; W o.e.U H 3.e.@ 3.e.7 3.;.: U & @ ;.7 7 H 7 o.@ ",
"- ;.> o.o.7 o.< $ ;.> o.H o.H 7 & e.7 H ( H 7 e.= e.7 7 H 3.H = - ;.;.s.;.H v.; W o.7.H 7 H s.@ W 7.; o.o.; q $ @ o.7 q H 7 o.@ ",
"- ;.7 ;.o.7 o.< $ 3.7 H o.o.q 7 $ e.7 W H H H g.= e.7 7 H 3.H - - ;.( v.s.;.e.; o.e.o.H q P 3.@ q ;.q o.o.: H $ @ P 7 q H q o.@ ",
"- ;.7 v.o.7 o.q @ o.H 7 o.o.H < = g.q H H H H g.= e.7 7 H e.o.- - ;.( V.7.o.v.; o.e.o.H q ;.3.@ < o.W o.H 7 o.$ @ o.q q H 7 o.@ ",
"- ;.7 q ! 7 o.q @ o.H 7 o.H : < $ 3.q H Y H q e.* e.7 7 H e.o.- - o.o.;.e.o.G.; W e.o.H 7 o.3.@ < ;.H o.7 > o.$ @ ;.7 q H > o.@ ",
"- ;.7 : 7.H o.q @ o.H 7 o.q > 7 # o.7 U o.H 7 e.* e.7 7 H 7.o.- - e.3.;.e.o.G.; H e.Y o.7 H e.@ : o.e.o.q 7 o.$ @ ;.7 7 H 7 H @ ",
"- ;.7 ;.7.7 o.7 $ e.q H o.7 H : # o.7 H o.o.P ;.$ e.7 7 H e.o.- - v.3.H e.o.G.; W e.H H 7 H e.@ < o.e.o.> q ;.$ @ ;.7 H H 7 H @ ",
"- 3.7 ! 7.7 H q $ g.q H o.: H : @ o.> H o.o.o.H $ 3.q H o.e.o.- - v.e.q ;.W G.; W e.H q q H e.@ : ;.o.o.q H 3.$ @ ;.> o.o.q H @ ",
"; v.: o.3.q P ; # v.q q o.q q < # o.: q o.o.o.( = e.7 H o.e.o.= - e.q.7 o.H G.; W 7.H < 7 H e.@ : ;.: o.U q 3.$ @ ;.7 o.o.q H @ ",
"; v.: o.o.q P ; # v.7 H o.o.H : # o.H H o.o.o.q $ e.7 7 o.e.o.% = o.H q o.H Z.; W e.Y q 7 U e.@ < o.7 H H 7 3.$ @ ;.7 o.o.q H @ ",
"; v.: o.o.q P ; # v.: H o.o.H : # o.H H o.U ;.= @ g.q q o.7.o.& - o.7 H H H v.; H e.o.o.7 H 3.+ : o.7 U H q ;.- # ;.7 o.o.q H @ ",
"; v.: o.o.q P - # v.: H o.o.H < $ 3.q H o.U ;.- @ g.U o.o.e.;.$ = o.> o.o.U 3.- o.3.o.o.7 U o.+ ; o.7 H H H ;.- # ;.7 o.o.q H @ "
};
